%
 (Header)
 (Generated by camcam from Asante Sign Group.)
(Using G0 which travels along dogleg path.)
O81111 (The Diamond)
(Quarter Inch Bit D=0.25 CR=0. - ZMIN=0.008 - flat end mill)
(Half Inch Bit D=0.125 CR=0. - ZMIN=0 - flat end mill)
(1/8 Inch Bit D=0.0625 CR=0. - ZMIN=0 - flat end mill)
(0.02 Inch Bit D=0.02 CR=0. - ZMIN=0 - flat end mill)
(Braille Bit D=0.02 CR=0. - ZMIN=0 - flat end mill)
(Text / Lettering Bit D=0.005 CR=0. - ZMIN=0 - flat end mill)
G20 (Use inches)
G94 (Set feed rate to units per minute.)
G90 (Set to absolute mode.)
G54
G00 X0 Y0 Z1 (return home z)
G00 X0 Y0 Z1 (return home)
(CHANGED TOOL 0)
G00 X0 Y0 Z1 (return home z)
G00 X0 Y0 Z1 (return home)

N1 T4 M6 (Tool change.)
G187 P2 (Set accuracy to Medium.)
G43 Z0.5 H4 (Set tool offset for tool 4.)
S12000 M03 (Set spindle on to clockwise.)
G00 X1 Y1 Z0.10800000000000001 (Moves to position specified rapid.)
G01 X1 Y1 Z-0.046999999999999986 F1080000 (Cuts to position specified.)
G01 X6.75 Y1 Z-0.046999999999999986 F1080000 (Cuts to position specified.)
G01 X6.75 Y1 Z0.10800000000000001 F1080000 (Cuts to position specified.)
G00 X1 Y1.25 Z0.10800000000000001 (Moves to position specified rapid.)
G01 X1 Y1.25 Z-0.046999999999999986 F1080000 (Cuts to position specified.)
G01 X6.75 Y1.25 Z-0.046999999999999986 F1080000 (Cuts to position specified.)
G01 X6.75 Y1.25 Z0.10800000000000001 F1080000 (Cuts to position specified.)
G00 X1 Y1.5 Z0.10800000000000001 (Moves to position specified rapid.)
G01 X1 Y1.5 Z-0.046999999999999986 F1080000 (Cuts to position specified.)
G01 X6.75 Y1.5 Z-0.046999999999999986 F1080000 (Cuts to position specified.)
G01 X6.75 Y1.5 Z0.10800000000000001 F1080000 (Cuts to position specified.)
G00 X1 Y1.75 Z0.10800000000000001 (Moves to position specified rapid.)
G01 X1 Y1.75 Z-0.046999999999999986 F1080000 (Cuts to position specified.)
G01 X6.75 Y1.75 Z-0.046999999999999986 F1080000 (Cuts to position specified.)
G01 X6.75 Y1.75 Z0.10800000000000001 F1080000 (Cuts to position specified.)
G00 X1 Y2 Z0.10800000000000001 (Moves to position specified rapid.)
G01 X1 Y2 Z-0.046999999999999986 F1080000 (Cuts to position specified.)
G01 X3.5 Y2 Z-0.046999999999999986 F1080000 (Cuts to position specified.)
G01 X3.5 Y2 Z0.10800000000000001 F1080000 (Cuts to position specified.)
G00 X4.5 Y2 Z0.10800000000000001 (Moves to position specified rapid.)
G01 X4.5 Y2 Z-0.046999999999999986 F1080000 (Cuts to position specified.)
G01 X6.75 Y2 Z-0.046999999999999986 F1080000 (Cuts to position specified.)
G01 X6.75 Y2 Z0.10800000000000001 F1080000 (Cuts to position specified.)
G00 X1 Y2.25 Z0.10800000000000001 (Moves to position specified rapid.)
G01 X1 Y2.25 Z-0.046999999999999986 F1080000 (Cuts to position specified.)
G01 X3.25 Y2.25 Z-0.046999999999999986 F1080000 (Cuts to position specified.)
G01 X3.25 Y2.25 Z0.10800000000000001 F1080000 (Cuts to position specified.)
G00 X4.75 Y2.25 Z0.10800000000000001 (Moves to position specified rapid.)
G01 X4.75 Y2.25 Z-0.046999999999999986 F1080000 (Cuts to position specified.)
G01 X6.75 Y2.25 Z-0.046999999999999986 F1080000 (Cuts to position specified.)
G01 X6.75 Y2.25 Z0.10800000000000001 F1080000 (Cuts to position specified.)
G00 X1 Y2.5 Z0.10800000000000001 (Moves to position specified rapid.)
G01 X1 Y2.5 Z-0.046999999999999986 F1080000 (Cuts to position specified.)
G01 X3 Y2.5 Z-0.046999999999999986 F1080000 (Cuts to position specified.)
G01 X3 Y2.5 Z0.10800000000000001 F1080000 (Cuts to position specified.)
G00 X5 Y2.5 Z0.10800000000000001 (Moves to position specified rapid.)
G01 X5 Y2.5 Z-0.046999999999999986 F1080000 (Cuts to position specified.)
G01 X6.75 Y2.5 Z-0.046999999999999986 F1080000 (Cuts to position specified.)
G01 X6.75 Y2.5 Z0.10800000000000001 F1080000 (Cuts to position specified.)
G00 X1 Y2.75 Z0.10800000000000001 (Moves to position specified rapid.)
G01 X1 Y2.75 Z-0.046999999999999986 F1080000 (Cuts to position specified.)
G01 X2.75 Y2.75 Z-0.046999999999999986 F1080000 (Cuts to position specified.)
G01 X2.75 Y2.75 Z0.10800000000000001 F1080000 (Cuts to position specified.)
G00 X5.25 Y2.75 Z0.10800000000000001 (Moves to position specified rapid.)
G01 X5.25 Y2.75 Z-0.046999999999999986 F1080000 (Cuts to position specified.)
G01 X6.75 Y2.75 Z-0.046999999999999986 F1080000 (Cuts to position specified.)
G01 X6.75 Y2.75 Z0.10800000000000001 F1080000 (Cuts to position specified.)
G00 X1 Y3 Z0.10800000000000001 (Moves to position specified rapid.)
G01 X1 Y3 Z-0.046999999999999986 F1080000 (Cuts to position specified.)
G01 X2.5 Y3 Z-0.046999999999999986 F1080000 (Cuts to position specified.)
G01 X2.5 Y3 Z0.10800000000000001 F1080000 (Cuts to position specified.)
G00 X5.5 Y3 Z0.10800000000000001 (Moves to position specified rapid.)
G01 X5.5 Y3 Z-0.046999999999999986 F1080000 (Cuts to position specified.)
G01 X6.75 Y3 Z-0.046999999999999986 F1080000 (Cuts to position specified.)
G01 X6.75 Y3 Z0.10800000000000001 F1080000 (Cuts to position specified.)
G00 X1 Y3.25 Z0.10800000000000001 (Moves to position specified rapid.)
G01 X1 Y3.25 Z-0.046999999999999986 F1080000 (Cuts to position specified.)
G01 X2.25 Y3.25 Z-0.046999999999999986 F1080000 (Cuts to position specified.)
G01 X2.25 Y3.25 Z0.10800000000000001 F1080000 (Cuts to position specified.)
G00 X5.75 Y3.25 Z0.10800000000000001 (Moves to position specified rapid.)
G01 X5.75 Y3.25 Z-0.046999999999999986 F1080000 (Cuts to position specified.)
G01 X6.75 Y3.25 Z-0.046999999999999986 F1080000 (Cuts to position specified.)
G01 X6.75 Y3.25 Z0.10800000000000001 F1080000 (Cuts to position specified.)
G00 X1 Y3.5 Z0.10800000000000001 (Moves to position specified rapid.)
G01 X1 Y3.5 Z-0.046999999999999986 F1080000 (Cuts to position specified.)
G01 X2 Y3.5 Z-0.046999999999999986 F1080000 (Cuts to position specified.)
G01 X2 Y3.5 Z0.10800000000000001 F1080000 (Cuts to position specified.)
G00 X6 Y3.5 Z0.10800000000000001 (Moves to position specified rapid.)
G01 X6 Y3.5 Z-0.046999999999999986 F1080000 (Cuts to position specified.)
G01 X6.75 Y3.5 Z-0.046999999999999986 F1080000 (Cuts to position specified.)
G01 X6.75 Y3.5 Z0.10800000000000001 F1080000 (Cuts to position specified.)
G00 X1 Y3.75 Z0.10800000000000001 (Moves to position specified rapid.)
G01 X1 Y3.75 Z-0.046999999999999986 F1080000 (Cuts to position specified.)
G01 X1.75 Y3.75 Z-0.046999999999999986 F1080000 (Cuts to position specified.)
G01 X1.75 Y3.75 Z0.10800000000000001 F1080000 (Cuts to position specified.)
G00 X6.25 Y3.75 Z0.10800000000000001 (Moves to position specified rapid.)
G01 X6.25 Y3.75 Z-0.046999999999999986 F1080000 (Cuts to position specified.)
G01 X6.75 Y3.75 Z-0.046999999999999986 F1080000 (Cuts to position specified.)
G01 X6.75 Y3.75 Z0.10800000000000001 F1080000 (Cuts to position specified.)
G00 X1 Y4 Z0.10800000000000001 (Moves to position specified rapid.)
G01 X1 Y4 Z-0.046999999999999986 F1080000 (Cuts to position specified.)
G01 X1.75 Y4 Z-0.046999999999999986 F1080000 (Cuts to position specified.)
G01 X1.75 Y4 Z0.10800000000000001 F1080000 (Cuts to position specified.)
G00 X6.25 Y4 Z0.10800000000000001 (Moves to position specified rapid.)
G01 X6.25 Y4 Z-0.046999999999999986 F1080000 (Cuts to position specified.)
G01 X6.75 Y4 Z-0.046999999999999986 F1080000 (Cuts to position specified.)
G01 X6.75 Y4 Z0.10800000000000001 F1080000 (Cuts to position specified.)
G00 X1 Y4.25 Z0.10800000000000001 (Moves to position specified rapid.)
G01 X1 Y4.25 Z-0.046999999999999986 F1080000 (Cuts to position specified.)
G01 X1.75 Y4.25 Z-0.046999999999999986 F1080000 (Cuts to position specified.)
G01 X1.75 Y4.25 Z0.10800000000000001 F1080000 (Cuts to position specified.)
G00 X6.25 Y4.25 Z0.10800000000000001 (Moves to position specified rapid.)
G01 X6.25 Y4.25 Z-0.046999999999999986 F1080000 (Cuts to position specified.)
G01 X6.75 Y4.25 Z-0.046999999999999986 F1080000 (Cuts to position specified.)
G01 X6.75 Y4.25 Z0.10800000000000001 F1080000 (Cuts to position specified.)
G00 X1 Y4.5 Z0.10800000000000001 (Moves to position specified rapid.)
G01 X1 Y4.5 Z-0.046999999999999986 F1080000 (Cuts to position specified.)
G01 X2 Y4.5 Z-0.046999999999999986 F1080000 (Cuts to position specified.)
G01 X2 Y4.5 Z0.10800000000000001 F1080000 (Cuts to position specified.)
G00 X6 Y4.5 Z0.10800000000000001 (Moves to position specified rapid.)
G01 X6 Y4.5 Z-0.046999999999999986 F1080000 (Cuts to position specified.)
G01 X6.75 Y4.5 Z-0.046999999999999986 F1080000 (Cuts to position specified.)
G01 X6.75 Y4.5 Z0.10800000000000001 F1080000 (Cuts to position specified.)
G00 X1 Y4.75 Z0.10800000000000001 (Moves to position specified rapid.)
G01 X1 Y4.75 Z-0.046999999999999986 F1080000 (Cuts to position specified.)
G01 X2.25 Y4.75 Z-0.046999999999999986 F1080000 (Cuts to position specified.)
G01 X2.25 Y4.75 Z0.10800000000000001 F1080000 (Cuts to position specified.)
G00 X5.75 Y4.75 Z0.10800000000000001 (Moves to position specified rapid.)
G01 X5.75 Y4.75 Z-0.046999999999999986 F1080000 (Cuts to position specified.)
G01 X6.75 Y4.75 Z-0.046999999999999986 F1080000 (Cuts to position specified.)
G01 X6.75 Y4.75 Z0.10800000000000001 F1080000 (Cuts to position specified.)
G00 X1 Y5 Z0.10800000000000001 (Moves to position specified rapid.)
G01 X1 Y5 Z-0.046999999999999986 F1080000 (Cuts to position specified.)
G01 X2.5 Y5 Z-0.046999999999999986 F1080000 (Cuts to position specified.)
G01 X2.5 Y5 Z0.10800000000000001 F1080000 (Cuts to position specified.)
G00 X5.5 Y5 Z0.10800000000000001 (Moves to position specified rapid.)
G01 X5.5 Y5 Z-0.046999999999999986 F1080000 (Cuts to position specified.)
G01 X6.75 Y5 Z-0.046999999999999986 F1080000 (Cuts to position specified.)
G01 X6.75 Y5 Z0.10800000000000001 F1080000 (Cuts to position specified.)
G00 X1 Y5.25 Z0.10800000000000001 (Moves to position specified rapid.)
G01 X1 Y5.25 Z-0.046999999999999986 F1080000 (Cuts to position specified.)
G01 X2.75 Y5.25 Z-0.046999999999999986 F1080000 (Cuts to position specified.)
G01 X2.75 Y5.25 Z0.10800000000000001 F1080000 (Cuts to position specified.)
G00 X5.25 Y5.25 Z0.10800000000000001 (Moves to position specified rapid.)
G01 X5.25 Y5.25 Z-0.046999999999999986 F1080000 (Cuts to position specified.)
G01 X6.75 Y5.25 Z-0.046999999999999986 F1080000 (Cuts to position specified.)
G01 X6.75 Y5.25 Z0.10800000000000001 F1080000 (Cuts to position specified.)
G00 X1 Y5.5 Z0.10800000000000001 (Moves to position specified rapid.)
G01 X1 Y5.5 Z-0.046999999999999986 F1080000 (Cuts to position specified.)
G01 X3 Y5.5 Z-0.046999999999999986 F1080000 (Cuts to position specified.)
G01 X3 Y5.5 Z0.10800000000000001 F1080000 (Cuts to position specified.)
G00 X5 Y5.5 Z0.10800000000000001 (Moves to position specified rapid.)
G01 X5 Y5.5 Z-0.046999999999999986 F1080000 (Cuts to position specified.)
G01 X6.75 Y5.5 Z-0.046999999999999986 F1080000 (Cuts to position specified.)
G01 X6.75 Y5.5 Z0.10800000000000001 F1080000 (Cuts to position specified.)
G00 X1 Y5.75 Z0.10800000000000001 (Moves to position specified rapid.)
G01 X1 Y5.75 Z-0.046999999999999986 F1080000 (Cuts to position specified.)
G01 X3.25 Y5.75 Z-0.046999999999999986 F1080000 (Cuts to position specified.)
G01 X3.25 Y5.75 Z0.10800000000000001 F1080000 (Cuts to position specified.)
G00 X4.75 Y5.75 Z0.10800000000000001 (Moves to position specified rapid.)
G01 X4.75 Y5.75 Z-0.046999999999999986 F1080000 (Cuts to position specified.)
G01 X6.75 Y5.75 Z-0.046999999999999986 F1080000 (Cuts to position specified.)
G01 X6.75 Y5.75 Z0.10800000000000001 F1080000 (Cuts to position specified.)
G00 X1 Y6 Z0.10800000000000001 (Moves to position specified rapid.)
G01 X1 Y6 Z-0.046999999999999986 F1080000 (Cuts to position specified.)
G01 X3.5 Y6 Z-0.046999999999999986 F1080000 (Cuts to position specified.)
G01 X3.5 Y6 Z0.10800000000000001 F1080000 (Cuts to position specified.)
G00 X4.5 Y6 Z0.10800000000000001 (Moves to position specified rapid.)
G01 X4.5 Y6 Z-0.046999999999999986 F1080000 (Cuts to position specified.)
G01 X6.75 Y6 Z-0.046999999999999986 F1080000 (Cuts to position specified.)
G01 X6.75 Y6 Z0.10800000000000001 F1080000 (Cuts to position specified.)
G00 X1 Y6.25 Z0.10800000000000001 (Moves to position specified rapid.)
G01 X1 Y6.25 Z-0.046999999999999986 F1080000 (Cuts to position specified.)
G01 X6.75 Y6.25 Z-0.046999999999999986 F1080000 (Cuts to position specified.)
G01 X6.75 Y6.25 Z0.10800000000000001 F1080000 (Cuts to position specified.)
G00 X1 Y6.5 Z0.10800000000000001 (Moves to position specified rapid.)
G01 X1 Y6.5 Z-0.046999999999999986 F1080000 (Cuts to position specified.)
G01 X6.75 Y6.5 Z-0.046999999999999986 F1080000 (Cuts to position specified.)
G01 X6.75 Y6.5 Z0.10800000000000001 F1080000 (Cuts to position specified.)
G00 X1 Y6.75 Z0.10800000000000001 (Moves to position specified rapid.)
G01 X1 Y6.75 Z-0.046999999999999986 F1080000 (Cuts to position specified.)
G01 X6.75 Y6.75 Z-0.046999999999999986 F1080000 (Cuts to position specified.)
G01 X6.75 Y6.75 Z0.10800000000000001 F1080000 (Cuts to position specified.)
M05 (Turn off the spindle.)
(CHANGED TOOL 1)
G00 X6.75 Y6.75 Z1 (return home z)
G00 X0 Y0 Z1 (return home)

N2 T3 M6 (Tool change.)
G187 P2 (Set accuracy to Medium.)
G43 Z0.5 H3 (Set tool offset for tool 3.)
S12000 M03 (Set spindle on to clockwise.)
G00 X1 Y1 Z0.1 (Moves to position specified rapid.)
G01 X1 Y1 Z-0.05499999999999999 F1080000 (Cuts to position specified.)
G01 X6.875 Y1 Z-0.05499999999999999 F1080000 (Cuts to position specified.)
G01 X6.875 Y1 Z0.1 F1080000 (Cuts to position specified.)
G00 X1 Y1.125 Z0.1 (Moves to position specified rapid.)
G01 X1 Y1.125 Z-0.05499999999999999 F1080000 (Cuts to position specified.)
G01 X6.875 Y1.125 Z-0.05499999999999999 F1080000 (Cuts to position specified.)
G01 X6.875 Y1.125 Z0.1 F1080000 (Cuts to position specified.)
G00 X1 Y1.25 Z0.1 (Moves to position specified rapid.)
G01 X1 Y1.25 Z-0.05499999999999999 F1080000 (Cuts to position specified.)
G01 X6.875 Y1.25 Z-0.05499999999999999 F1080000 (Cuts to position specified.)
G01 X6.875 Y1.25 Z0.1 F1080000 (Cuts to position specified.)
G00 X1 Y1.375 Z0.1 (Moves to position specified rapid.)
G01 X1 Y1.375 Z-0.05499999999999999 F1080000 (Cuts to position specified.)
G01 X6.875 Y1.375 Z-0.05499999999999999 F1080000 (Cuts to position specified.)
G01 X6.875 Y1.375 Z0.1 F1080000 (Cuts to position specified.)
G00 X1 Y1.5 Z0.1 (Moves to position specified rapid.)
G01 X1 Y1.5 Z-0.05499999999999999 F1080000 (Cuts to position specified.)
G01 X6.875 Y1.5 Z-0.05499999999999999 F1080000 (Cuts to position specified.)
G01 X6.875 Y1.5 Z0.1 F1080000 (Cuts to position specified.)
G00 X1 Y1.625 Z0.1 (Moves to position specified rapid.)
G01 X1 Y1.625 Z-0.05499999999999999 F1080000 (Cuts to position specified.)
G01 X6.875 Y1.625 Z-0.05499999999999999 F1080000 (Cuts to position specified.)
G01 X6.875 Y1.625 Z0.1 F1080000 (Cuts to position specified.)
G00 X1 Y1.75 Z0.1 (Moves to position specified rapid.)
G01 X1 Y1.75 Z-0.05499999999999999 F1080000 (Cuts to position specified.)
G01 X6.875 Y1.75 Z-0.05499999999999999 F1080000 (Cuts to position specified.)
G01 X6.875 Y1.75 Z0.1 F1080000 (Cuts to position specified.)
G00 X1 Y1.875 Z0.1 (Moves to position specified rapid.)
G01 X1 Y1.875 Z-0.05499999999999999 F1080000 (Cuts to position specified.)
G01 X6.875 Y1.875 Z-0.05499999999999999 F1080000 (Cuts to position specified.)
G01 X6.875 Y1.875 Z0.1 F1080000 (Cuts to position specified.)
G00 X1 Y2 Z0.1 (Moves to position specified rapid.)
G01 X1 Y2 Z-0.05499999999999999 F1080000 (Cuts to position specified.)
G01 X3.75 Y2 Z-0.05499999999999999 F1080000 (Cuts to position specified.)
G01 X3.75 Y2 Z0.1 F1080000 (Cuts to position specified.)
G00 X4.25 Y2 Z0.1 (Moves to position specified rapid.)
G01 X4.25 Y2 Z-0.05499999999999999 F1080000 (Cuts to position specified.)
G01 X6.875 Y2 Z-0.05499999999999999 F1080000 (Cuts to position specified.)
G01 X6.875 Y2 Z0.1 F1080000 (Cuts to position specified.)
G00 X1 Y2.125 Z0.1 (Moves to position specified rapid.)
G01 X1 Y2.125 Z-0.05499999999999999 F1080000 (Cuts to position specified.)
G01 X3.625 Y2.125 Z-0.05499999999999999 F1080000 (Cuts to position specified.)
G01 X3.625 Y2.125 Z0.1 F1080000 (Cuts to position specified.)
G00 X4.375 Y2.125 Z0.1 (Moves to position specified rapid.)
G01 X4.375 Y2.125 Z-0.05499999999999999 F1080000 (Cuts to position specified.)
G01 X6.875 Y2.125 Z-0.05499999999999999 F1080000 (Cuts to position specified.)
G01 X6.875 Y2.125 Z0.1 F1080000 (Cuts to position specified.)
G00 X1 Y2.25 Z0.1 (Moves to position specified rapid.)
G01 X1 Y2.25 Z-0.05499999999999999 F1080000 (Cuts to position specified.)
G01 X3.5 Y2.25 Z-0.05499999999999999 F1080000 (Cuts to position specified.)
G01 X3.5 Y2.25 Z0.1 F1080000 (Cuts to position specified.)
G00 X4.5 Y2.25 Z0.1 (Moves to position specified rapid.)
G01 X4.5 Y2.25 Z-0.05499999999999999 F1080000 (Cuts to position specified.)
G01 X6.875 Y2.25 Z-0.05499999999999999 F1080000 (Cuts to position specified.)
G01 X6.875 Y2.25 Z0.1 F1080000 (Cuts to position specified.)
G00 X1 Y2.375 Z0.1 (Moves to position specified rapid.)
G01 X1 Y2.375 Z-0.05499999999999999 F1080000 (Cuts to position specified.)
G01 X3.375 Y2.375 Z-0.05499999999999999 F1080000 (Cuts to position specified.)
G01 X3.375 Y2.375 Z0.1 F1080000 (Cuts to position specified.)
G00 X4.625 Y2.375 Z0.1 (Moves to position specified rapid.)
G01 X4.625 Y2.375 Z-0.05499999999999999 F1080000 (Cuts to position specified.)
G01 X6.875 Y2.375 Z-0.05499999999999999 F1080000 (Cuts to position specified.)
G01 X6.875 Y2.375 Z0.1 F1080000 (Cuts to position specified.)
G00 X1 Y2.5 Z0.1 (Moves to position specified rapid.)
G01 X1 Y2.5 Z-0.05499999999999999 F1080000 (Cuts to position specified.)
G01 X3.25 Y2.5 Z-0.05499999999999999 F1080000 (Cuts to position specified.)
G01 X3.25 Y2.5 Z0.1 F1080000 (Cuts to position specified.)
G00 X4.75 Y2.5 Z0.1 (Moves to position specified rapid.)
G01 X4.75 Y2.5 Z-0.05499999999999999 F1080000 (Cuts to position specified.)
G01 X6.875 Y2.5 Z-0.05499999999999999 F1080000 (Cuts to position specified.)
G01 X6.875 Y2.5 Z0.1 F1080000 (Cuts to position specified.)
G00 X1 Y2.625 Z0.1 (Moves to position specified rapid.)
G01 X1 Y2.625 Z-0.05499999999999999 F1080000 (Cuts to position specified.)
G01 X3.125 Y2.625 Z-0.05499999999999999 F1080000 (Cuts to position specified.)
G01 X3.125 Y2.625 Z0.1 F1080000 (Cuts to position specified.)
G00 X4.875 Y2.625 Z0.1 (Moves to position specified rapid.)
G01 X4.875 Y2.625 Z-0.05499999999999999 F1080000 (Cuts to position specified.)
G01 X6.875 Y2.625 Z-0.05499999999999999 F1080000 (Cuts to position specified.)
G01 X6.875 Y2.625 Z0.1 F1080000 (Cuts to position specified.)
G00 X1 Y2.75 Z0.1 (Moves to position specified rapid.)
G01 X1 Y2.75 Z-0.05499999999999999 F1080000 (Cuts to position specified.)
G01 X3 Y2.75 Z-0.05499999999999999 F1080000 (Cuts to position specified.)
G01 X3 Y2.75 Z0.1 F1080000 (Cuts to position specified.)
G00 X5 Y2.75 Z0.1 (Moves to position specified rapid.)
G01 X5 Y2.75 Z-0.05499999999999999 F1080000 (Cuts to position specified.)
G01 X6.875 Y2.75 Z-0.05499999999999999 F1080000 (Cuts to position specified.)
G01 X6.875 Y2.75 Z0.1 F1080000 (Cuts to position specified.)
G00 X1 Y2.875 Z0.1 (Moves to position specified rapid.)
G01 X1 Y2.875 Z-0.05499999999999999 F1080000 (Cuts to position specified.)
G01 X2.875 Y2.875 Z-0.05499999999999999 F1080000 (Cuts to position specified.)
G01 X2.875 Y2.875 Z0.1 F1080000 (Cuts to position specified.)
G00 X5.125 Y2.875 Z0.1 (Moves to position specified rapid.)
G01 X5.125 Y2.875 Z-0.05499999999999999 F1080000 (Cuts to position specified.)
G01 X6.875 Y2.875 Z-0.05499999999999999 F1080000 (Cuts to position specified.)
G01 X6.875 Y2.875 Z0.1 F1080000 (Cuts to position specified.)
G00 X1 Y3 Z0.1 (Moves to position specified rapid.)
G01 X1 Y3 Z-0.05499999999999999 F1080000 (Cuts to position specified.)
G01 X2.75 Y3 Z-0.05499999999999999 F1080000 (Cuts to position specified.)
G01 X2.75 Y3 Z0.1 F1080000 (Cuts to position specified.)
G00 X5.25 Y3 Z0.1 (Moves to position specified rapid.)
G01 X5.25 Y3 Z-0.05499999999999999 F1080000 (Cuts to position specified.)
G01 X6.875 Y3 Z-0.05499999999999999 F1080000 (Cuts to position specified.)
G01 X6.875 Y3 Z0.1 F1080000 (Cuts to position specified.)
G00 X1 Y3.125 Z0.1 (Moves to position specified rapid.)
G01 X1 Y3.125 Z-0.05499999999999999 F1080000 (Cuts to position specified.)
G01 X2.625 Y3.125 Z-0.05499999999999999 F1080000 (Cuts to position specified.)
G01 X2.625 Y3.125 Z0.1 F1080000 (Cuts to position specified.)
G00 X5.375 Y3.125 Z0.1 (Moves to position specified rapid.)
G01 X5.375 Y3.125 Z-0.05499999999999999 F1080000 (Cuts to position specified.)
G01 X6.875 Y3.125 Z-0.05499999999999999 F1080000 (Cuts to position specified.)
G01 X6.875 Y3.125 Z0.1 F1080000 (Cuts to position specified.)
G00 X1 Y3.25 Z0.1 (Moves to position specified rapid.)
G01 X1 Y3.25 Z-0.05499999999999999 F1080000 (Cuts to position specified.)
G01 X2.5 Y3.25 Z-0.05499999999999999 F1080000 (Cuts to position specified.)
G01 X2.5 Y3.25 Z0.1 F1080000 (Cuts to position specified.)
G00 X5.5 Y3.25 Z0.1 (Moves to position specified rapid.)
G01 X5.5 Y3.25 Z-0.05499999999999999 F1080000 (Cuts to position specified.)
G01 X6.875 Y3.25 Z-0.05499999999999999 F1080000 (Cuts to position specified.)
G01 X6.875 Y3.25 Z0.1 F1080000 (Cuts to position specified.)
G00 X1 Y3.375 Z0.1 (Moves to position specified rapid.)
G01 X1 Y3.375 Z-0.05499999999999999 F1080000 (Cuts to position specified.)
G01 X2.375 Y3.375 Z-0.05499999999999999 F1080000 (Cuts to position specified.)
G01 X2.375 Y3.375 Z0.1 F1080000 (Cuts to position specified.)
G00 X5.625 Y3.375 Z0.1 (Moves to position specified rapid.)
G01 X5.625 Y3.375 Z-0.05499999999999999 F1080000 (Cuts to position specified.)
G01 X6.875 Y3.375 Z-0.05499999999999999 F1080000 (Cuts to position specified.)
G01 X6.875 Y3.375 Z0.1 F1080000 (Cuts to position specified.)
G00 X1 Y3.5 Z0.1 (Moves to position specified rapid.)
G01 X1 Y3.5 Z-0.05499999999999999 F1080000 (Cuts to position specified.)
G01 X2.25 Y3.5 Z-0.05499999999999999 F1080000 (Cuts to position specified.)
G01 X2.25 Y3.5 Z0.1 F1080000 (Cuts to position specified.)
G00 X5.75 Y3.5 Z0.1 (Moves to position specified rapid.)
G01 X5.75 Y3.5 Z-0.05499999999999999 F1080000 (Cuts to position specified.)
G01 X6.875 Y3.5 Z-0.05499999999999999 F1080000 (Cuts to position specified.)
G01 X6.875 Y3.5 Z0.1 F1080000 (Cuts to position specified.)
G00 X1 Y3.625 Z0.1 (Moves to position specified rapid.)
G01 X1 Y3.625 Z-0.05499999999999999 F1080000 (Cuts to position specified.)
G01 X2.125 Y3.625 Z-0.05499999999999999 F1080000 (Cuts to position specified.)
G01 X2.125 Y3.625 Z0.1 F1080000 (Cuts to position specified.)
G00 X5.875 Y3.625 Z0.1 (Moves to position specified rapid.)
G01 X5.875 Y3.625 Z-0.05499999999999999 F1080000 (Cuts to position specified.)
G01 X6.875 Y3.625 Z-0.05499999999999999 F1080000 (Cuts to position specified.)
G01 X6.875 Y3.625 Z0.1 F1080000 (Cuts to position specified.)
G00 X1 Y3.75 Z0.1 (Moves to position specified rapid.)
G01 X1 Y3.75 Z-0.05499999999999999 F1080000 (Cuts to position specified.)
G01 X2 Y3.75 Z-0.05499999999999999 F1080000 (Cuts to position specified.)
G01 X2 Y3.75 Z0.1 F1080000 (Cuts to position specified.)
G00 X6 Y3.75 Z0.1 (Moves to position specified rapid.)
G01 X6 Y3.75 Z-0.05499999999999999 F1080000 (Cuts to position specified.)
G01 X6.875 Y3.75 Z-0.05499999999999999 F1080000 (Cuts to position specified.)
G01 X6.875 Y3.75 Z0.1 F1080000 (Cuts to position specified.)
G00 X1 Y3.875 Z0.1 (Moves to position specified rapid.)
G01 X1 Y3.875 Z-0.05499999999999999 F1080000 (Cuts to position specified.)
G01 X1.875 Y3.875 Z-0.05499999999999999 F1080000 (Cuts to position specified.)
G01 X1.875 Y3.875 Z0.1 F1080000 (Cuts to position specified.)
G00 X6.125 Y3.875 Z0.1 (Moves to position specified rapid.)
G01 X6.125 Y3.875 Z-0.05499999999999999 F1080000 (Cuts to position specified.)
G01 X6.875 Y3.875 Z-0.05499999999999999 F1080000 (Cuts to position specified.)
G01 X6.875 Y3.875 Z0.1 F1080000 (Cuts to position specified.)
G00 X1 Y4 Z0.1 (Moves to position specified rapid.)
G01 X1 Y4 Z-0.05499999999999999 F1080000 (Cuts to position specified.)
G01 X1.875 Y4 Z-0.05499999999999999 F1080000 (Cuts to position specified.)
G01 X1.875 Y4 Z0.1 F1080000 (Cuts to position specified.)
G00 X6.125 Y4 Z0.1 (Moves to position specified rapid.)
G01 X6.125 Y4 Z-0.05499999999999999 F1080000 (Cuts to position specified.)
G01 X6.875 Y4 Z-0.05499999999999999 F1080000 (Cuts to position specified.)
G01 X6.875 Y4 Z0.1 F1080000 (Cuts to position specified.)
G00 X1 Y4.125 Z0.1 (Moves to position specified rapid.)
G01 X1 Y4.125 Z-0.05499999999999999 F1080000 (Cuts to position specified.)
G01 X1.875 Y4.125 Z-0.05499999999999999 F1080000 (Cuts to position specified.)
G01 X1.875 Y4.125 Z0.1 F1080000 (Cuts to position specified.)
G00 X6.125 Y4.125 Z0.1 (Moves to position specified rapid.)
G01 X6.125 Y4.125 Z-0.05499999999999999 F1080000 (Cuts to position specified.)
G01 X6.875 Y4.125 Z-0.05499999999999999 F1080000 (Cuts to position specified.)
G01 X6.875 Y4.125 Z0.1 F1080000 (Cuts to position specified.)
G00 X1 Y4.25 Z0.1 (Moves to position specified rapid.)
G01 X1 Y4.25 Z-0.05499999999999999 F1080000 (Cuts to position specified.)
G01 X2 Y4.25 Z-0.05499999999999999 F1080000 (Cuts to position specified.)
G01 X2 Y4.25 Z0.1 F1080000 (Cuts to position specified.)
G00 X6 Y4.25 Z0.1 (Moves to position specified rapid.)
G01 X6 Y4.25 Z-0.05499999999999999 F1080000 (Cuts to position specified.)
G01 X6.875 Y4.25 Z-0.05499999999999999 F1080000 (Cuts to position specified.)
G01 X6.875 Y4.25 Z0.1 F1080000 (Cuts to position specified.)
G00 X1 Y4.375 Z0.1 (Moves to position specified rapid.)
G01 X1 Y4.375 Z-0.05499999999999999 F1080000 (Cuts to position specified.)
G01 X2.125 Y4.375 Z-0.05499999999999999 F1080000 (Cuts to position specified.)
G01 X2.125 Y4.375 Z0.1 F1080000 (Cuts to position specified.)
G00 X5.875 Y4.375 Z0.1 (Moves to position specified rapid.)
G01 X5.875 Y4.375 Z-0.05499999999999999 F1080000 (Cuts to position specified.)
G01 X6.875 Y4.375 Z-0.05499999999999999 F1080000 (Cuts to position specified.)
G01 X6.875 Y4.375 Z0.1 F1080000 (Cuts to position specified.)
G00 X1 Y4.5 Z0.1 (Moves to position specified rapid.)
G01 X1 Y4.5 Z-0.05499999999999999 F1080000 (Cuts to position specified.)
G01 X2.25 Y4.5 Z-0.05499999999999999 F1080000 (Cuts to position specified.)
G01 X2.25 Y4.5 Z0.1 F1080000 (Cuts to position specified.)
G00 X5.75 Y4.5 Z0.1 (Moves to position specified rapid.)
G01 X5.75 Y4.5 Z-0.05499999999999999 F1080000 (Cuts to position specified.)
G01 X6.875 Y4.5 Z-0.05499999999999999 F1080000 (Cuts to position specified.)
G01 X6.875 Y4.5 Z0.1 F1080000 (Cuts to position specified.)
G00 X1 Y4.625 Z0.1 (Moves to position specified rapid.)
G01 X1 Y4.625 Z-0.05499999999999999 F1080000 (Cuts to position specified.)
G01 X2.375 Y4.625 Z-0.05499999999999999 F1080000 (Cuts to position specified.)
G01 X2.375 Y4.625 Z0.1 F1080000 (Cuts to position specified.)
G00 X5.625 Y4.625 Z0.1 (Moves to position specified rapid.)
G01 X5.625 Y4.625 Z-0.05499999999999999 F1080000 (Cuts to position specified.)
G01 X6.875 Y4.625 Z-0.05499999999999999 F1080000 (Cuts to position specified.)
G01 X6.875 Y4.625 Z0.1 F1080000 (Cuts to position specified.)
G00 X1 Y4.75 Z0.1 (Moves to position specified rapid.)
G01 X1 Y4.75 Z-0.05499999999999999 F1080000 (Cuts to position specified.)
G01 X2.5 Y4.75 Z-0.05499999999999999 F1080000 (Cuts to position specified.)
G01 X2.5 Y4.75 Z0.1 F1080000 (Cuts to position specified.)
G00 X5.5 Y4.75 Z0.1 (Moves to position specified rapid.)
G01 X5.5 Y4.75 Z-0.05499999999999999 F1080000 (Cuts to position specified.)
G01 X6.875 Y4.75 Z-0.05499999999999999 F1080000 (Cuts to position specified.)
G01 X6.875 Y4.75 Z0.1 F1080000 (Cuts to position specified.)
G00 X1 Y4.875 Z0.1 (Moves to position specified rapid.)
G01 X1 Y4.875 Z-0.05499999999999999 F1080000 (Cuts to position specified.)
G01 X2.625 Y4.875 Z-0.05499999999999999 F1080000 (Cuts to position specified.)
G01 X2.625 Y4.875 Z0.1 F1080000 (Cuts to position specified.)
G00 X5.375 Y4.875 Z0.1 (Moves to position specified rapid.)
G01 X5.375 Y4.875 Z-0.05499999999999999 F1080000 (Cuts to position specified.)
G01 X6.875 Y4.875 Z-0.05499999999999999 F1080000 (Cuts to position specified.)
G01 X6.875 Y4.875 Z0.1 F1080000 (Cuts to position specified.)
G00 X1 Y5 Z0.1 (Moves to position specified rapid.)
G01 X1 Y5 Z-0.05499999999999999 F1080000 (Cuts to position specified.)
G01 X2.75 Y5 Z-0.05499999999999999 F1080000 (Cuts to position specified.)
G01 X2.75 Y5 Z0.1 F1080000 (Cuts to position specified.)
G00 X5.25 Y5 Z0.1 (Moves to position specified rapid.)
G01 X5.25 Y5 Z-0.05499999999999999 F1080000 (Cuts to position specified.)
G01 X6.875 Y5 Z-0.05499999999999999 F1080000 (Cuts to position specified.)
G01 X6.875 Y5 Z0.1 F1080000 (Cuts to position specified.)
G00 X1 Y5.125 Z0.1 (Moves to position specified rapid.)
G01 X1 Y5.125 Z-0.05499999999999999 F1080000 (Cuts to position specified.)
G01 X2.875 Y5.125 Z-0.05499999999999999 F1080000 (Cuts to position specified.)
G01 X2.875 Y5.125 Z0.1 F1080000 (Cuts to position specified.)
G00 X5.125 Y5.125 Z0.1 (Moves to position specified rapid.)
G01 X5.125 Y5.125 Z-0.05499999999999999 F1080000 (Cuts to position specified.)
G01 X6.875 Y5.125 Z-0.05499999999999999 F1080000 (Cuts to position specified.)
G01 X6.875 Y5.125 Z0.1 F1080000 (Cuts to position specified.)
G00 X1 Y5.25 Z0.1 (Moves to position specified rapid.)
G01 X1 Y5.25 Z-0.05499999999999999 F1080000 (Cuts to position specified.)
G01 X3 Y5.25 Z-0.05499999999999999 F1080000 (Cuts to position specified.)
G01 X3 Y5.25 Z0.1 F1080000 (Cuts to position specified.)
G00 X5 Y5.25 Z0.1 (Moves to position specified rapid.)
G01 X5 Y5.25 Z-0.05499999999999999 F1080000 (Cuts to position specified.)
G01 X6.875 Y5.25 Z-0.05499999999999999 F1080000 (Cuts to position specified.)
G01 X6.875 Y5.25 Z0.1 F1080000 (Cuts to position specified.)
G00 X1 Y5.375 Z0.1 (Moves to position specified rapid.)
G01 X1 Y5.375 Z-0.05499999999999999 F1080000 (Cuts to position specified.)
G01 X3.125 Y5.375 Z-0.05499999999999999 F1080000 (Cuts to position specified.)
G01 X3.125 Y5.375 Z0.1 F1080000 (Cuts to position specified.)
G00 X4.875 Y5.375 Z0.1 (Moves to position specified rapid.)
G01 X4.875 Y5.375 Z-0.05499999999999999 F1080000 (Cuts to position specified.)
G01 X6.875 Y5.375 Z-0.05499999999999999 F1080000 (Cuts to position specified.)
G01 X6.875 Y5.375 Z0.1 F1080000 (Cuts to position specified.)
G00 X1 Y5.5 Z0.1 (Moves to position specified rapid.)
G01 X1 Y5.5 Z-0.05499999999999999 F1080000 (Cuts to position specified.)
G01 X3.25 Y5.5 Z-0.05499999999999999 F1080000 (Cuts to position specified.)
G01 X3.25 Y5.5 Z0.1 F1080000 (Cuts to position specified.)
G00 X4.75 Y5.5 Z0.1 (Moves to position specified rapid.)
G01 X4.75 Y5.5 Z-0.05499999999999999 F1080000 (Cuts to position specified.)
G01 X6.875 Y5.5 Z-0.05499999999999999 F1080000 (Cuts to position specified.)
G01 X6.875 Y5.5 Z0.1 F1080000 (Cuts to position specified.)
G00 X1 Y5.625 Z0.1 (Moves to position specified rapid.)
G01 X1 Y5.625 Z-0.05499999999999999 F1080000 (Cuts to position specified.)
G01 X3.375 Y5.625 Z-0.05499999999999999 F1080000 (Cuts to position specified.)
G01 X3.375 Y5.625 Z0.1 F1080000 (Cuts to position specified.)
G00 X4.625 Y5.625 Z0.1 (Moves to position specified rapid.)
G01 X4.625 Y5.625 Z-0.05499999999999999 F1080000 (Cuts to position specified.)
G01 X6.875 Y5.625 Z-0.05499999999999999 F1080000 (Cuts to position specified.)
G01 X6.875 Y5.625 Z0.1 F1080000 (Cuts to position specified.)
G00 X1 Y5.75 Z0.1 (Moves to position specified rapid.)
G01 X1 Y5.75 Z-0.05499999999999999 F1080000 (Cuts to position specified.)
G01 X3.5 Y5.75 Z-0.05499999999999999 F1080000 (Cuts to position specified.)
G01 X3.5 Y5.75 Z0.1 F1080000 (Cuts to position specified.)
G00 X4.5 Y5.75 Z0.1 (Moves to position specified rapid.)
G01 X4.5 Y5.75 Z-0.05499999999999999 F1080000 (Cuts to position specified.)
G01 X6.875 Y5.75 Z-0.05499999999999999 F1080000 (Cuts to position specified.)
G01 X6.875 Y5.75 Z0.1 F1080000 (Cuts to position specified.)
G00 X1 Y5.875 Z0.1 (Moves to position specified rapid.)
G01 X1 Y5.875 Z-0.05499999999999999 F1080000 (Cuts to position specified.)
G01 X3.625 Y5.875 Z-0.05499999999999999 F1080000 (Cuts to position specified.)
G01 X3.625 Y5.875 Z0.1 F1080000 (Cuts to position specified.)
G00 X4.375 Y5.875 Z0.1 (Moves to position specified rapid.)
G01 X4.375 Y5.875 Z-0.05499999999999999 F1080000 (Cuts to position specified.)
G01 X6.875 Y5.875 Z-0.05499999999999999 F1080000 (Cuts to position specified.)
G01 X6.875 Y5.875 Z0.1 F1080000 (Cuts to position specified.)
G00 X1 Y6 Z0.1 (Moves to position specified rapid.)
G01 X1 Y6 Z-0.05499999999999999 F1080000 (Cuts to position specified.)
G01 X3.75 Y6 Z-0.05499999999999999 F1080000 (Cuts to position specified.)
G01 X3.75 Y6 Z0.1 F1080000 (Cuts to position specified.)
G00 X4.25 Y6 Z0.1 (Moves to position specified rapid.)
G01 X4.25 Y6 Z-0.05499999999999999 F1080000 (Cuts to position specified.)
G01 X6.875 Y6 Z-0.05499999999999999 F1080000 (Cuts to position specified.)
G01 X6.875 Y6 Z0.1 F1080000 (Cuts to position specified.)
G00 X1 Y6.125 Z0.1 (Moves to position specified rapid.)
G01 X1 Y6.125 Z-0.05499999999999999 F1080000 (Cuts to position specified.)
G01 X6.875 Y6.125 Z-0.05499999999999999 F1080000 (Cuts to position specified.)
G01 X6.875 Y6.125 Z0.1 F1080000 (Cuts to position specified.)
G00 X1 Y6.25 Z0.1 (Moves to position specified rapid.)
G01 X1 Y6.25 Z-0.05499999999999999 F1080000 (Cuts to position specified.)
G01 X6.875 Y6.25 Z-0.05499999999999999 F1080000 (Cuts to position specified.)
G01 X6.875 Y6.25 Z0.1 F1080000 (Cuts to position specified.)
G00 X1 Y6.375 Z0.1 (Moves to position specified rapid.)
G01 X1 Y6.375 Z-0.05499999999999999 F1080000 (Cuts to position specified.)
G01 X6.875 Y6.375 Z-0.05499999999999999 F1080000 (Cuts to position specified.)
G01 X6.875 Y6.375 Z0.1 F1080000 (Cuts to position specified.)
G00 X1 Y6.5 Z0.1 (Moves to position specified rapid.)
G01 X1 Y6.5 Z-0.05499999999999999 F1080000 (Cuts to position specified.)
G01 X6.875 Y6.5 Z-0.05499999999999999 F1080000 (Cuts to position specified.)
G01 X6.875 Y6.5 Z0.1 F1080000 (Cuts to position specified.)
G00 X1 Y6.625 Z0.1 (Moves to position specified rapid.)
G01 X1 Y6.625 Z-0.05499999999999999 F1080000 (Cuts to position specified.)
G01 X6.875 Y6.625 Z-0.05499999999999999 F1080000 (Cuts to position specified.)
G01 X6.875 Y6.625 Z0.1 F1080000 (Cuts to position specified.)
G00 X1 Y6.75 Z0.1 (Moves to position specified rapid.)
G01 X1 Y6.75 Z-0.05499999999999999 F1080000 (Cuts to position specified.)
G01 X6.875 Y6.75 Z-0.05499999999999999 F1080000 (Cuts to position specified.)
G01 X6.875 Y6.75 Z0.1 F1080000 (Cuts to position specified.)
G00 X1 Y6.875 Z0.1 (Moves to position specified rapid.)
G01 X1 Y6.875 Z-0.05499999999999999 F1080000 (Cuts to position specified.)
G01 X6.875 Y6.875 Z-0.05499999999999999 F1080000 (Cuts to position specified.)
G01 X6.875 Y6.875 Z0.1 F1080000 (Cuts to position specified.)
M05 (Turn off the spindle.)
(CHANGED TOOL 2)
G00 X6.875 Y6.875 Z1 (return home z)
G00 X0 Y0 Z1 (return home)

N3 T5 M6 (Tool change.)
G187 P3 (Set accuracy to Finish.)
G43 Z0.5 H5 (Set tool offset for tool 5.)
S12000 M03 (Set spindle on to clockwise.)
G00 X3.875 Y2 Z0.1 (Moves to position specified rapid.)
G01 X3.875 Y2 Z-0.05499999999999999 F1080000 (Cuts to position specified.)
G01 X3.875 Y2 Z-0.05499999999999999 F1080000 (Cuts to position specified.)
G01 X3.875 Y2 Z0.1 F1080000 (Cuts to position specified.)
G00 X4.125 Y2 Z0.1 (Moves to position specified rapid.)
G01 X4.125 Y2 Z-0.05499999999999999 F1080000 (Cuts to position specified.)
G01 X4.1875 Y2 Z-0.05499999999999999 F1080000 (Cuts to position specified.)
G01 X4.1875 Y2 Z0.1 F1080000 (Cuts to position specified.)
G00 X4.1875 Y2.0625 Z0.1 (Moves to position specified rapid.)
G01 X4.1875 Y2.0625 Z-0.05499999999999999 F1080000 (Cuts to position specified.)
G01 X4.1875 Y2.0625 Z-0.05499999999999999 F1080000 (Cuts to position specified.)
G01 X4.1875 Y2.0625 Z0.1 F1080000 (Cuts to position specified.)
G01 X4.1875 Y2.0625 Z0.1 F1080000 (Cuts to position specified.)
G00 X3.75 Y2.125 Z0.1 (Moves to position specified rapid.)
G01 X3.75 Y2.125 Z-0.05499999999999999 F1080000 (Cuts to position specified.)
G01 X3.75 Y2.125 Z-0.05499999999999999 F1080000 (Cuts to position specified.)
G01 X3.75 Y2.125 Z0.1 F1080000 (Cuts to position specified.)
G01 X3.75 Y2.125 Z0.1 F1080000 (Cuts to position specified.)
G00 X4.25 Y2.125 Z0.1 (Moves to position specified rapid.)
G01 X4.25 Y2.125 Z-0.05499999999999999 F1080000 (Cuts to position specified.)
G01 X4.3125 Y2.125 Z-0.05499999999999999 F1080000 (Cuts to position specified.)
G01 X4.3125 Y2.125 Z0.1 F1080000 (Cuts to position specified.)
G00 X4.3125 Y2.1875 Z0.1 (Moves to position specified rapid.)
G01 X4.3125 Y2.1875 Z-0.05499999999999999 F1080000 (Cuts to position specified.)
G01 X4.3125 Y2.1875 Z-0.05499999999999999 F1080000 (Cuts to position specified.)
G01 X4.3125 Y2.1875 Z0.1 F1080000 (Cuts to position specified.)
G01 X4.3125 Y2.1875 Z0.1 F1080000 (Cuts to position specified.)
G00 X3.625 Y2.25 Z0.1 (Moves to position specified rapid.)
G01 X3.625 Y2.25 Z-0.05499999999999999 F1080000 (Cuts to position specified.)
G01 X3.625 Y2.25 Z-0.05499999999999999 F1080000 (Cuts to position specified.)
G01 X3.625 Y2.25 Z0.1 F1080000 (Cuts to position specified.)
G01 X3.625 Y2.25 Z0.1 F1080000 (Cuts to position specified.)
G01 X3.625 Y2.25 Z0.1 F1080000 (Cuts to position specified.)
G01 X3.625 Y2.25 Z0.1 F1080000 (Cuts to position specified.)
G00 X4.375 Y2.25 Z0.1 (Moves to position specified rapid.)
G01 X4.375 Y2.25 Z-0.05499999999999999 F1080000 (Cuts to position specified.)
G01 X4.4375 Y2.25 Z-0.05499999999999999 F1080000 (Cuts to position specified.)
G01 X4.4375 Y2.25 Z0.1 F1080000 (Cuts to position specified.)
G00 X4.4375 Y2.3125 Z0.1 (Moves to position specified rapid.)
G01 X4.4375 Y2.3125 Z-0.05499999999999999 F1080000 (Cuts to position specified.)
G01 X4.4375 Y2.3125 Z-0.05499999999999999 F1080000 (Cuts to position specified.)
G01 X4.4375 Y2.3125 Z0.1 F1080000 (Cuts to position specified.)
G01 X4.4375 Y2.3125 Z0.1 F1080000 (Cuts to position specified.)
G00 X3.5 Y2.375 Z0.1 (Moves to position specified rapid.)
G01 X3.5 Y2.375 Z-0.05499999999999999 F1080000 (Cuts to position specified.)
G01 X3.5 Y2.375 Z-0.05499999999999999 F1080000 (Cuts to position specified.)
G01 X3.5 Y2.375 Z0.1 F1080000 (Cuts to position specified.)
G01 X3.5 Y2.375 Z0.1 F1080000 (Cuts to position specified.)
G00 X4.5 Y2.375 Z0.1 (Moves to position specified rapid.)
G01 X4.5 Y2.375 Z-0.05499999999999999 F1080000 (Cuts to position specified.)
G01 X4.5625 Y2.375 Z-0.05499999999999999 F1080000 (Cuts to position specified.)
G01 X4.5625 Y2.375 Z0.1 F1080000 (Cuts to position specified.)
G00 X4.5625 Y2.4375 Z0.1 (Moves to position specified rapid.)
G01 X4.5625 Y2.4375 Z-0.05499999999999999 F1080000 (Cuts to position specified.)
G01 X4.5625 Y2.4375 Z-0.05499999999999999 F1080000 (Cuts to position specified.)
G01 X4.5625 Y2.4375 Z0.1 F1080000 (Cuts to position specified.)
G01 X4.5625 Y2.4375 Z0.1 F1080000 (Cuts to position specified.)
G00 X3.375 Y2.5 Z0.1 (Moves to position specified rapid.)
G01 X3.375 Y2.5 Z-0.05499999999999999 F1080000 (Cuts to position specified.)
G01 X3.375 Y2.5 Z-0.05499999999999999 F1080000 (Cuts to position specified.)
G01 X3.375 Y2.5 Z0.1 F1080000 (Cuts to position specified.)
G01 X3.375 Y2.5 Z0.1 F1080000 (Cuts to position specified.)
G00 X4.625 Y2.5 Z0.1 (Moves to position specified rapid.)
G01 X4.625 Y2.5 Z-0.05499999999999999 F1080000 (Cuts to position specified.)
G01 X4.6875 Y2.5 Z-0.05499999999999999 F1080000 (Cuts to position specified.)
G01 X4.6875 Y2.5 Z0.1 F1080000 (Cuts to position specified.)
G00 X4.6875 Y2.5625 Z0.1 (Moves to position specified rapid.)
G01 X4.6875 Y2.5625 Z-0.05499999999999999 F1080000 (Cuts to position specified.)
G01 X4.6875 Y2.5625 Z-0.05499999999999999 F1080000 (Cuts to position specified.)
G01 X4.6875 Y2.5625 Z0.1 F1080000 (Cuts to position specified.)
G01 X4.6875 Y2.5625 Z0.1 F1080000 (Cuts to position specified.)
G00 X3.25 Y2.625 Z0.1 (Moves to position specified rapid.)
G01 X3.25 Y2.625 Z-0.05499999999999999 F1080000 (Cuts to position specified.)
G01 X3.25 Y2.625 Z-0.05499999999999999 F1080000 (Cuts to position specified.)
G01 X3.25 Y2.625 Z0.1 F1080000 (Cuts to position specified.)
G01 X3.25 Y2.625 Z0.1 F1080000 (Cuts to position specified.)
G00 X4.75 Y2.625 Z0.1 (Moves to position specified rapid.)
G01 X4.75 Y2.625 Z-0.05499999999999999 F1080000 (Cuts to position specified.)
G01 X4.8125 Y2.625 Z-0.05499999999999999 F1080000 (Cuts to position specified.)
G01 X4.8125 Y2.625 Z0.1 F1080000 (Cuts to position specified.)
G00 X4.8125 Y2.6875 Z0.1 (Moves to position specified rapid.)
G01 X4.8125 Y2.6875 Z-0.05499999999999999 F1080000 (Cuts to position specified.)
G01 X4.8125 Y2.6875 Z-0.05499999999999999 F1080000 (Cuts to position specified.)
G01 X4.8125 Y2.6875 Z0.1 F1080000 (Cuts to position specified.)
G01 X4.8125 Y2.6875 Z0.1 F1080000 (Cuts to position specified.)
G00 X3.125 Y2.75 Z0.1 (Moves to position specified rapid.)
G01 X3.125 Y2.75 Z-0.05499999999999999 F1080000 (Cuts to position specified.)
G01 X3.125 Y2.75 Z-0.05499999999999999 F1080000 (Cuts to position specified.)
G01 X3.125 Y2.75 Z0.1 F1080000 (Cuts to position specified.)
G01 X3.125 Y2.75 Z0.1 F1080000 (Cuts to position specified.)
G00 X4.875 Y2.75 Z0.1 (Moves to position specified rapid.)
G01 X4.875 Y2.75 Z-0.05499999999999999 F1080000 (Cuts to position specified.)
G01 X4.9375 Y2.75 Z-0.05499999999999999 F1080000 (Cuts to position specified.)
G01 X4.9375 Y2.75 Z0.1 F1080000 (Cuts to position specified.)
G00 X4.9375 Y2.8125 Z0.1 (Moves to position specified rapid.)
G01 X4.9375 Y2.8125 Z-0.05499999999999999 F1080000 (Cuts to position specified.)
G01 X4.9375 Y2.8125 Z-0.05499999999999999 F1080000 (Cuts to position specified.)
G01 X4.9375 Y2.8125 Z0.1 F1080000 (Cuts to position specified.)
G01 X4.9375 Y2.8125 Z0.1 F1080000 (Cuts to position specified.)
G00 X3 Y2.875 Z0.1 (Moves to position specified rapid.)
G01 X3 Y2.875 Z-0.05499999999999999 F1080000 (Cuts to position specified.)
G01 X3 Y2.875 Z-0.05499999999999999 F1080000 (Cuts to position specified.)
G01 X3 Y2.875 Z0.1 F1080000 (Cuts to position specified.)
G01 X3 Y2.875 Z0.1 F1080000 (Cuts to position specified.)
G00 X5 Y2.875 Z0.1 (Moves to position specified rapid.)
G01 X5 Y2.875 Z-0.05499999999999999 F1080000 (Cuts to position specified.)
G01 X5.0625 Y2.875 Z-0.05499999999999999 F1080000 (Cuts to position specified.)
G01 X5.0625 Y2.875 Z0.1 F1080000 (Cuts to position specified.)
G00 X5.0625 Y2.9375 Z0.1 (Moves to position specified rapid.)
G01 X5.0625 Y2.9375 Z-0.05499999999999999 F1080000 (Cuts to position specified.)
G01 X5.0625 Y2.9375 Z-0.05499999999999999 F1080000 (Cuts to position specified.)
G01 X5.0625 Y2.9375 Z0.1 F1080000 (Cuts to position specified.)
G01 X5.0625 Y2.9375 Z0.1 F1080000 (Cuts to position specified.)
G00 X2.875 Y3 Z0.1 (Moves to position specified rapid.)
G01 X2.875 Y3 Z-0.05499999999999999 F1080000 (Cuts to position specified.)
G01 X2.875 Y3 Z-0.05499999999999999 F1080000 (Cuts to position specified.)
G01 X2.875 Y3 Z0.1 F1080000 (Cuts to position specified.)
G01 X2.875 Y3 Z0.1 F1080000 (Cuts to position specified.)
G00 X5.125 Y3 Z0.1 (Moves to position specified rapid.)
G01 X5.125 Y3 Z-0.05499999999999999 F1080000 (Cuts to position specified.)
G01 X5.1875 Y3 Z-0.05499999999999999 F1080000 (Cuts to position specified.)
G01 X5.1875 Y3 Z0.1 F1080000 (Cuts to position specified.)
G00 X5.1875 Y3.0625 Z0.1 (Moves to position specified rapid.)
G01 X5.1875 Y3.0625 Z-0.05499999999999999 F1080000 (Cuts to position specified.)
G01 X5.1875 Y3.0625 Z-0.05499999999999999 F1080000 (Cuts to position specified.)
G01 X5.1875 Y3.0625 Z0.1 F1080000 (Cuts to position specified.)
G01 X5.1875 Y3.0625 Z0.1 F1080000 (Cuts to position specified.)
G00 X2.75 Y3.125 Z0.1 (Moves to position specified rapid.)
G01 X2.75 Y3.125 Z-0.05499999999999999 F1080000 (Cuts to position specified.)
G01 X2.75 Y3.125 Z-0.05499999999999999 F1080000 (Cuts to position specified.)
G01 X2.75 Y3.125 Z0.1 F1080000 (Cuts to position specified.)
G01 X2.75 Y3.125 Z0.1 F1080000 (Cuts to position specified.)
G00 X5.25 Y3.125 Z0.1 (Moves to position specified rapid.)
G01 X5.25 Y3.125 Z-0.05499999999999999 F1080000 (Cuts to position specified.)
G01 X5.3125 Y3.125 Z-0.05499999999999999 F1080000 (Cuts to position specified.)
G01 X5.3125 Y3.125 Z0.1 F1080000 (Cuts to position specified.)
G00 X5.3125 Y3.1875 Z0.1 (Moves to position specified rapid.)
G01 X5.3125 Y3.1875 Z-0.05499999999999999 F1080000 (Cuts to position specified.)
G01 X5.3125 Y3.1875 Z-0.05499999999999999 F1080000 (Cuts to position specified.)
G01 X5.3125 Y3.1875 Z0.1 F1080000 (Cuts to position specified.)
G01 X5.3125 Y3.1875 Z0.1 F1080000 (Cuts to position specified.)
G00 X2.625 Y3.25 Z0.1 (Moves to position specified rapid.)
G01 X2.625 Y3.25 Z-0.05499999999999999 F1080000 (Cuts to position specified.)
G01 X2.625 Y3.25 Z-0.05499999999999999 F1080000 (Cuts to position specified.)
G01 X2.625 Y3.25 Z0.1 F1080000 (Cuts to position specified.)
G01 X2.625 Y3.25 Z0.1 F1080000 (Cuts to position specified.)
G00 X5.375 Y3.25 Z0.1 (Moves to position specified rapid.)
G01 X5.375 Y3.25 Z-0.05499999999999999 F1080000 (Cuts to position specified.)
G01 X5.4375 Y3.25 Z-0.05499999999999999 F1080000 (Cuts to position specified.)
G01 X5.4375 Y3.25 Z0.1 F1080000 (Cuts to position specified.)
G00 X5.4375 Y3.3125 Z0.1 (Moves to position specified rapid.)
G01 X5.4375 Y3.3125 Z-0.05499999999999999 F1080000 (Cuts to position specified.)
G01 X5.4375 Y3.3125 Z-0.05499999999999999 F1080000 (Cuts to position specified.)
G01 X5.4375 Y3.3125 Z0.1 F1080000 (Cuts to position specified.)
G01 X5.4375 Y3.3125 Z0.1 F1080000 (Cuts to position specified.)
G00 X2.5 Y3.375 Z0.1 (Moves to position specified rapid.)
G01 X2.5 Y3.375 Z-0.05499999999999999 F1080000 (Cuts to position specified.)
G01 X2.5 Y3.375 Z-0.05499999999999999 F1080000 (Cuts to position specified.)
G01 X2.5 Y3.375 Z0.1 F1080000 (Cuts to position specified.)
G01 X2.5 Y3.375 Z0.1 F1080000 (Cuts to position specified.)
G00 X5.5 Y3.375 Z0.1 (Moves to position specified rapid.)
G01 X5.5 Y3.375 Z-0.05499999999999999 F1080000 (Cuts to position specified.)
G01 X5.5625 Y3.375 Z-0.05499999999999999 F1080000 (Cuts to position specified.)
G01 X5.5625 Y3.375 Z0.1 F1080000 (Cuts to position specified.)
G00 X5.5625 Y3.4375 Z0.1 (Moves to position specified rapid.)
G01 X5.5625 Y3.4375 Z-0.05499999999999999 F1080000 (Cuts to position specified.)
G01 X5.5625 Y3.4375 Z-0.05499999999999999 F1080000 (Cuts to position specified.)
G01 X5.5625 Y3.4375 Z0.1 F1080000 (Cuts to position specified.)
G01 X5.5625 Y3.4375 Z0.1 F1080000 (Cuts to position specified.)
G00 X2.375 Y3.5 Z0.1 (Moves to position specified rapid.)
G01 X2.375 Y3.5 Z-0.05499999999999999 F1080000 (Cuts to position specified.)
G01 X2.375 Y3.5 Z-0.05499999999999999 F1080000 (Cuts to position specified.)
G01 X2.375 Y3.5 Z0.1 F1080000 (Cuts to position specified.)
G01 X2.375 Y3.5 Z0.1 F1080000 (Cuts to position specified.)
G00 X5.625 Y3.5 Z0.1 (Moves to position specified rapid.)
G01 X5.625 Y3.5 Z-0.05499999999999999 F1080000 (Cuts to position specified.)
G01 X5.6875 Y3.5 Z-0.05499999999999999 F1080000 (Cuts to position specified.)
G01 X5.6875 Y3.5 Z0.1 F1080000 (Cuts to position specified.)
G00 X5.6875 Y3.5625 Z0.1 (Moves to position specified rapid.)
G01 X5.6875 Y3.5625 Z-0.05499999999999999 F1080000 (Cuts to position specified.)
G01 X5.6875 Y3.5625 Z-0.05499999999999999 F1080000 (Cuts to position specified.)
G01 X5.6875 Y3.5625 Z0.1 F1080000 (Cuts to position specified.)
G01 X5.6875 Y3.5625 Z0.1 F1080000 (Cuts to position specified.)
G00 X2.25 Y3.625 Z0.1 (Moves to position specified rapid.)
G01 X2.25 Y3.625 Z-0.05499999999999999 F1080000 (Cuts to position specified.)
G01 X2.25 Y3.625 Z-0.05499999999999999 F1080000 (Cuts to position specified.)
G01 X2.25 Y3.625 Z0.1 F1080000 (Cuts to position specified.)
G01 X2.25 Y3.625 Z0.1 F1080000 (Cuts to position specified.)
G00 X5.75 Y3.625 Z0.1 (Moves to position specified rapid.)
G01 X5.75 Y3.625 Z-0.05499999999999999 F1080000 (Cuts to position specified.)
G01 X5.8125 Y3.625 Z-0.05499999999999999 F1080000 (Cuts to position specified.)
G01 X5.8125 Y3.625 Z0.1 F1080000 (Cuts to position specified.)
G00 X5.8125 Y3.6875 Z0.1 (Moves to position specified rapid.)
G01 X5.8125 Y3.6875 Z-0.05499999999999999 F1080000 (Cuts to position specified.)
G01 X5.8125 Y3.6875 Z-0.05499999999999999 F1080000 (Cuts to position specified.)
G01 X5.8125 Y3.6875 Z0.1 F1080000 (Cuts to position specified.)
G01 X5.8125 Y3.6875 Z0.1 F1080000 (Cuts to position specified.)
G00 X2.125 Y3.75 Z0.1 (Moves to position specified rapid.)
G01 X2.125 Y3.75 Z-0.05499999999999999 F1080000 (Cuts to position specified.)
G01 X2.125 Y3.75 Z-0.05499999999999999 F1080000 (Cuts to position specified.)
G01 X2.125 Y3.75 Z0.1 F1080000 (Cuts to position specified.)
G00 X2.125 Y4.25 Z0.1 (Moves to position specified rapid.)
G01 X2.125 Y4.25 Z-0.05499999999999999 F1080000 (Cuts to position specified.)
G01 X2.125 Y4.25 Z-0.05499999999999999 F1080000 (Cuts to position specified.)
G01 X2.125 Y4.25 Z0.1 F1080000 (Cuts to position specified.)
G00 X2.125 Y4.3125 Z0.1 (Moves to position specified rapid.)
G01 X2.125 Y4.3125 Z-0.05499999999999999 F1080000 (Cuts to position specified.)
G01 X2.1875 Y4.3125 Z-0.05499999999999999 F1080000 (Cuts to position specified.)
G01 X2.1875 Y4.3125 Z0.1 F1080000 (Cuts to position specified.)
G00 X5.875 Y3.75 Z0.1 (Moves to position specified rapid.)
G01 X5.875 Y3.75 Z-0.05499999999999999 F1080000 (Cuts to position specified.)
G01 X5.9375 Y3.75 Z-0.05499999999999999 F1080000 (Cuts to position specified.)
G01 X5.9375 Y3.75 Z0.1 F1080000 (Cuts to position specified.)
G00 X5.9375 Y3.8125 Z0.1 (Moves to position specified rapid.)
G01 X5.9375 Y3.8125 Z-0.05499999999999999 F1080000 (Cuts to position specified.)
G01 X5.9375 Y3.8125 Z-0.05499999999999999 F1080000 (Cuts to position specified.)
G01 X5.9375 Y3.8125 Z0.1 F1080000 (Cuts to position specified.)
G00 X5.9375 Y4.1875 Z0.1 (Moves to position specified rapid.)
G01 X5.9375 Y4.1875 Z-0.05499999999999999 F1080000 (Cuts to position specified.)
G01 X5.9375 Y4.1875 Z-0.05499999999999999 F1080000 (Cuts to position specified.)
G01 X5.9375 Y4.1875 Z0.1 F1080000 (Cuts to position specified.)
G00 X5.875 Y4.25 Z0.1 (Moves to position specified rapid.)
G01 X5.875 Y4.25 Z-0.05499999999999999 F1080000 (Cuts to position specified.)
G01 X5.9375 Y4.25 Z-0.05499999999999999 F1080000 (Cuts to position specified.)
G01 X5.9375 Y4.25 Z0.1 F1080000 (Cuts to position specified.)
G00 X5.875 Y4.3125 Z0.1 (Moves to position specified rapid.)
G01 X5.875 Y4.3125 Z-0.05499999999999999 F1080000 (Cuts to position specified.)
G01 X5.9375 Y4.3125 Z-0.05499999999999999 F1080000 (Cuts to position specified.)
G01 X5.9375 Y4.3125 Z0.1 F1080000 (Cuts to position specified.)
G00 X2 Y3.875 Z0.1 (Moves to position specified rapid.)
G01 X2 Y3.875 Z-0.05499999999999999 F1080000 (Cuts to position specified.)
G01 X2 Y3.875 Z-0.05499999999999999 F1080000 (Cuts to position specified.)
G01 X2 Y3.875 Z0.1 F1080000 (Cuts to position specified.)
G00 X2 Y4.125 Z0.1 (Moves to position specified rapid.)
G01 X2 Y4.125 Z-0.05499999999999999 F1080000 (Cuts to position specified.)
G01 X2 Y4.125 Z-0.05499999999999999 F1080000 (Cuts to position specified.)
G01 X2 Y4.125 Z0.1 F1080000 (Cuts to position specified.)
G00 X2 Y4.1875 Z0.1 (Moves to position specified rapid.)
G01 X2 Y4.1875 Z-0.05499999999999999 F1080000 (Cuts to position specified.)
G01 X2.0625 Y4.1875 Z-0.05499999999999999 F1080000 (Cuts to position specified.)
G01 X2.0625 Y4.1875 Z0.1 F1080000 (Cuts to position specified.)
G00 X6 Y3.875 Z0.1 (Moves to position specified rapid.)
G01 X6 Y3.875 Z-0.05499999999999999 F1080000 (Cuts to position specified.)
G01 X6.0625 Y3.875 Z-0.05499999999999999 F1080000 (Cuts to position specified.)
G01 X6.0625 Y3.875 Z0.1 F1080000 (Cuts to position specified.)
G00 X6.0625 Y3.9375 Z0.1 (Moves to position specified rapid.)
G01 X6.0625 Y3.9375 Z-0.05499999999999999 F1080000 (Cuts to position specified.)
G01 X6.0625 Y3.9375 Z-0.05499999999999999 F1080000 (Cuts to position specified.)
G01 X6.0625 Y3.9375 Z0.1 F1080000 (Cuts to position specified.)
G00 X6.0625 Y4 Z0.1 (Moves to position specified rapid.)
G01 X6.0625 Y4 Z-0.05499999999999999 F1080000 (Cuts to position specified.)
G01 X6.0625 Y4 Z-0.05499999999999999 F1080000 (Cuts to position specified.)
G01 X6.0625 Y4 Z0.1 F1080000 (Cuts to position specified.)
G00 X6.0625 Y4.0625 Z0.1 (Moves to position specified rapid.)
G01 X6.0625 Y4.0625 Z-0.05499999999999999 F1080000 (Cuts to position specified.)
G01 X6.0625 Y4.0625 Z-0.05499999999999999 F1080000 (Cuts to position specified.)
G01 X6.0625 Y4.0625 Z0.1 F1080000 (Cuts to position specified.)
G00 X6 Y4.125 Z0.1 (Moves to position specified rapid.)
G01 X6 Y4.125 Z-0.05499999999999999 F1080000 (Cuts to position specified.)
G01 X6.0625 Y4.125 Z-0.05499999999999999 F1080000 (Cuts to position specified.)
G01 X6.0625 Y4.125 Z0.1 F1080000 (Cuts to position specified.)
G00 X6 Y4.1875 Z0.1 (Moves to position specified rapid.)
G01 X6 Y4.1875 Z-0.05499999999999999 F1080000 (Cuts to position specified.)
G01 X6.0625 Y4.1875 Z-0.05499999999999999 F1080000 (Cuts to position specified.)
G01 X6.0625 Y4.1875 Z0.1 F1080000 (Cuts to position specified.)
G00 X2.25 Y4.375 Z0.1 (Moves to position specified rapid.)
G01 X2.25 Y4.375 Z-0.05499999999999999 F1080000 (Cuts to position specified.)
G01 X2.25 Y4.375 Z-0.05499999999999999 F1080000 (Cuts to position specified.)
G01 X2.25 Y4.375 Z0.1 F1080000 (Cuts to position specified.)
G00 X2.25 Y4.4375 Z0.1 (Moves to position specified rapid.)
G01 X2.25 Y4.4375 Z-0.05499999999999999 F1080000 (Cuts to position specified.)
G01 X2.3125 Y4.4375 Z-0.05499999999999999 F1080000 (Cuts to position specified.)
G01 X2.3125 Y4.4375 Z0.1 F1080000 (Cuts to position specified.)
G00 X5.8125 Y4.3125 Z0.1 (Moves to position specified rapid.)
G01 X5.8125 Y4.3125 Z-0.05499999999999999 F1080000 (Cuts to position specified.)
G01 X5.8125 Y4.3125 Z-0.05499999999999999 F1080000 (Cuts to position specified.)
G01 X5.8125 Y4.3125 Z0.1 F1080000 (Cuts to position specified.)
G00 X5.75 Y4.375 Z0.1 (Moves to position specified rapid.)
G01 X5.75 Y4.375 Z-0.05499999999999999 F1080000 (Cuts to position specified.)
G01 X5.8125 Y4.375 Z-0.05499999999999999 F1080000 (Cuts to position specified.)
G01 X5.8125 Y4.375 Z0.1 F1080000 (Cuts to position specified.)
G00 X5.75 Y4.4375 Z0.1 (Moves to position specified rapid.)
G01 X5.75 Y4.4375 Z-0.05499999999999999 F1080000 (Cuts to position specified.)
G01 X5.8125 Y4.4375 Z-0.05499999999999999 F1080000 (Cuts to position specified.)
G01 X5.8125 Y4.4375 Z0.1 F1080000 (Cuts to position specified.)
G00 X2.375 Y4.5 Z0.1 (Moves to position specified rapid.)
G01 X2.375 Y4.5 Z-0.05499999999999999 F1080000 (Cuts to position specified.)
G01 X2.375 Y4.5 Z-0.05499999999999999 F1080000 (Cuts to position specified.)
G01 X2.375 Y4.5 Z0.1 F1080000 (Cuts to position specified.)
G00 X2.375 Y4.5625 Z0.1 (Moves to position specified rapid.)
G01 X2.375 Y4.5625 Z-0.05499999999999999 F1080000 (Cuts to position specified.)
G01 X2.4375 Y4.5625 Z-0.05499999999999999 F1080000 (Cuts to position specified.)
G01 X2.4375 Y4.5625 Z0.1 F1080000 (Cuts to position specified.)
G00 X5.6875 Y4.4375 Z0.1 (Moves to position specified rapid.)
G01 X5.6875 Y4.4375 Z-0.05499999999999999 F1080000 (Cuts to position specified.)
G01 X5.6875 Y4.4375 Z-0.05499999999999999 F1080000 (Cuts to position specified.)
G01 X5.6875 Y4.4375 Z0.1 F1080000 (Cuts to position specified.)
G00 X5.625 Y4.5 Z0.1 (Moves to position specified rapid.)
G01 X5.625 Y4.5 Z-0.05499999999999999 F1080000 (Cuts to position specified.)
G01 X5.6875 Y4.5 Z-0.05499999999999999 F1080000 (Cuts to position specified.)
G01 X5.6875 Y4.5 Z0.1 F1080000 (Cuts to position specified.)
G00 X5.625 Y4.5625 Z0.1 (Moves to position specified rapid.)
G01 X5.625 Y4.5625 Z-0.05499999999999999 F1080000 (Cuts to position specified.)
G01 X5.6875 Y4.5625 Z-0.05499999999999999 F1080000 (Cuts to position specified.)
G01 X5.6875 Y4.5625 Z0.1 F1080000 (Cuts to position specified.)
G00 X2.5 Y4.625 Z0.1 (Moves to position specified rapid.)
G01 X2.5 Y4.625 Z-0.05499999999999999 F1080000 (Cuts to position specified.)
G01 X2.5 Y4.625 Z-0.05499999999999999 F1080000 (Cuts to position specified.)
G01 X2.5 Y4.625 Z0.1 F1080000 (Cuts to position specified.)
G00 X2.5 Y4.6875 Z0.1 (Moves to position specified rapid.)
G01 X2.5 Y4.6875 Z-0.05499999999999999 F1080000 (Cuts to position specified.)
G01 X2.5625 Y4.6875 Z-0.05499999999999999 F1080000 (Cuts to position specified.)
G01 X2.5625 Y4.6875 Z0.1 F1080000 (Cuts to position specified.)
G00 X5.5625 Y4.5625 Z0.1 (Moves to position specified rapid.)
G01 X5.5625 Y4.5625 Z-0.05499999999999999 F1080000 (Cuts to position specified.)
G01 X5.5625 Y4.5625 Z-0.05499999999999999 F1080000 (Cuts to position specified.)
G01 X5.5625 Y4.5625 Z0.1 F1080000 (Cuts to position specified.)
G00 X5.5 Y4.625 Z0.1 (Moves to position specified rapid.)
G01 X5.5 Y4.625 Z-0.05499999999999999 F1080000 (Cuts to position specified.)
G01 X5.5625 Y4.625 Z-0.05499999999999999 F1080000 (Cuts to position specified.)
G01 X5.5625 Y4.625 Z0.1 F1080000 (Cuts to position specified.)
G00 X5.5 Y4.6875 Z0.1 (Moves to position specified rapid.)
G01 X5.5 Y4.6875 Z-0.05499999999999999 F1080000 (Cuts to position specified.)
G01 X5.5625 Y4.6875 Z-0.05499999999999999 F1080000 (Cuts to position specified.)
G01 X5.5625 Y4.6875 Z0.1 F1080000 (Cuts to position specified.)
G00 X2.625 Y4.75 Z0.1 (Moves to position specified rapid.)
G01 X2.625 Y4.75 Z-0.05499999999999999 F1080000 (Cuts to position specified.)
G01 X2.625 Y4.75 Z-0.05499999999999999 F1080000 (Cuts to position specified.)
G01 X2.625 Y4.75 Z0.1 F1080000 (Cuts to position specified.)
G00 X2.625 Y4.8125 Z0.1 (Moves to position specified rapid.)
G01 X2.625 Y4.8125 Z-0.05499999999999999 F1080000 (Cuts to position specified.)
G01 X2.6875 Y4.8125 Z-0.05499999999999999 F1080000 (Cuts to position specified.)
G01 X2.6875 Y4.8125 Z0.1 F1080000 (Cuts to position specified.)
G00 X5.4375 Y4.6875 Z0.1 (Moves to position specified rapid.)
G01 X5.4375 Y4.6875 Z-0.05499999999999999 F1080000 (Cuts to position specified.)
G01 X5.4375 Y4.6875 Z-0.05499999999999999 F1080000 (Cuts to position specified.)
G01 X5.4375 Y4.6875 Z0.1 F1080000 (Cuts to position specified.)
G00 X5.375 Y4.75 Z0.1 (Moves to position specified rapid.)
G01 X5.375 Y4.75 Z-0.05499999999999999 F1080000 (Cuts to position specified.)
G01 X5.4375 Y4.75 Z-0.05499999999999999 F1080000 (Cuts to position specified.)
G01 X5.4375 Y4.75 Z0.1 F1080000 (Cuts to position specified.)
G00 X5.375 Y4.8125 Z0.1 (Moves to position specified rapid.)
G01 X5.375 Y4.8125 Z-0.05499999999999999 F1080000 (Cuts to position specified.)
G01 X5.4375 Y4.8125 Z-0.05499999999999999 F1080000 (Cuts to position specified.)
G01 X5.4375 Y4.8125 Z0.1 F1080000 (Cuts to position specified.)
G00 X2.75 Y4.875 Z0.1 (Moves to position specified rapid.)
G01 X2.75 Y4.875 Z-0.05499999999999999 F1080000 (Cuts to position specified.)
G01 X2.75 Y4.875 Z-0.05499999999999999 F1080000 (Cuts to position specified.)
G01 X2.75 Y4.875 Z0.1 F1080000 (Cuts to position specified.)
G00 X2.75 Y4.9375 Z0.1 (Moves to position specified rapid.)
G01 X2.75 Y4.9375 Z-0.05499999999999999 F1080000 (Cuts to position specified.)
G01 X2.8125 Y4.9375 Z-0.05499999999999999 F1080000 (Cuts to position specified.)
G01 X2.8125 Y4.9375 Z0.1 F1080000 (Cuts to position specified.)
G00 X5.3125 Y4.8125 Z0.1 (Moves to position specified rapid.)
G01 X5.3125 Y4.8125 Z-0.05499999999999999 F1080000 (Cuts to position specified.)
G01 X5.3125 Y4.8125 Z-0.05499999999999999 F1080000 (Cuts to position specified.)
G01 X5.3125 Y4.8125 Z0.1 F1080000 (Cuts to position specified.)
G00 X5.25 Y4.875 Z0.1 (Moves to position specified rapid.)
G01 X5.25 Y4.875 Z-0.05499999999999999 F1080000 (Cuts to position specified.)
G01 X5.3125 Y4.875 Z-0.05499999999999999 F1080000 (Cuts to position specified.)
G01 X5.3125 Y4.875 Z0.1 F1080000 (Cuts to position specified.)
G00 X5.25 Y4.9375 Z0.1 (Moves to position specified rapid.)
G01 X5.25 Y4.9375 Z-0.05499999999999999 F1080000 (Cuts to position specified.)
G01 X5.3125 Y4.9375 Z-0.05499999999999999 F1080000 (Cuts to position specified.)
G01 X5.3125 Y4.9375 Z0.1 F1080000 (Cuts to position specified.)
G00 X2.875 Y5 Z0.1 (Moves to position specified rapid.)
G01 X2.875 Y5 Z-0.05499999999999999 F1080000 (Cuts to position specified.)
G01 X2.875 Y5 Z-0.05499999999999999 F1080000 (Cuts to position specified.)
G01 X2.875 Y5 Z0.1 F1080000 (Cuts to position specified.)
G00 X2.875 Y5.0625 Z0.1 (Moves to position specified rapid.)
G01 X2.875 Y5.0625 Z-0.05499999999999999 F1080000 (Cuts to position specified.)
G01 X2.9375 Y5.0625 Z-0.05499999999999999 F1080000 (Cuts to position specified.)
G01 X2.9375 Y5.0625 Z0.1 F1080000 (Cuts to position specified.)
G00 X5.1875 Y4.9375 Z0.1 (Moves to position specified rapid.)
G01 X5.1875 Y4.9375 Z-0.05499999999999999 F1080000 (Cuts to position specified.)
G01 X5.1875 Y4.9375 Z-0.05499999999999999 F1080000 (Cuts to position specified.)
G01 X5.1875 Y4.9375 Z0.1 F1080000 (Cuts to position specified.)
G00 X5.125 Y5 Z0.1 (Moves to position specified rapid.)
G01 X5.125 Y5 Z-0.05499999999999999 F1080000 (Cuts to position specified.)
G01 X5.1875 Y5 Z-0.05499999999999999 F1080000 (Cuts to position specified.)
G01 X5.1875 Y5 Z0.1 F1080000 (Cuts to position specified.)
G00 X5.125 Y5.0625 Z0.1 (Moves to position specified rapid.)
G01 X5.125 Y5.0625 Z-0.05499999999999999 F1080000 (Cuts to position specified.)
G01 X5.1875 Y5.0625 Z-0.05499999999999999 F1080000 (Cuts to position specified.)
G01 X5.1875 Y5.0625 Z0.1 F1080000 (Cuts to position specified.)
G00 X3 Y5.125 Z0.1 (Moves to position specified rapid.)
G01 X3 Y5.125 Z-0.05499999999999999 F1080000 (Cuts to position specified.)
G01 X3 Y5.125 Z-0.05499999999999999 F1080000 (Cuts to position specified.)
G01 X3 Y5.125 Z0.1 F1080000 (Cuts to position specified.)
G00 X3 Y5.1875 Z0.1 (Moves to position specified rapid.)
G01 X3 Y5.1875 Z-0.05499999999999999 F1080000 (Cuts to position specified.)
G01 X3.0625 Y5.1875 Z-0.05499999999999999 F1080000 (Cuts to position specified.)
G01 X3.0625 Y5.1875 Z0.1 F1080000 (Cuts to position specified.)
G00 X5.0625 Y5.0625 Z0.1 (Moves to position specified rapid.)
G01 X5.0625 Y5.0625 Z-0.05499999999999999 F1080000 (Cuts to position specified.)
G01 X5.0625 Y5.0625 Z-0.05499999999999999 F1080000 (Cuts to position specified.)
G01 X5.0625 Y5.0625 Z0.1 F1080000 (Cuts to position specified.)
G00 X5 Y5.125 Z0.1 (Moves to position specified rapid.)
G01 X5 Y5.125 Z-0.05499999999999999 F1080000 (Cuts to position specified.)
G01 X5.0625 Y5.125 Z-0.05499999999999999 F1080000 (Cuts to position specified.)
G01 X5.0625 Y5.125 Z0.1 F1080000 (Cuts to position specified.)
G00 X5 Y5.1875 Z0.1 (Moves to position specified rapid.)
G01 X5 Y5.1875 Z-0.05499999999999999 F1080000 (Cuts to position specified.)
G01 X5.0625 Y5.1875 Z-0.05499999999999999 F1080000 (Cuts to position specified.)
G01 X5.0625 Y5.1875 Z0.1 F1080000 (Cuts to position specified.)
G00 X3.125 Y5.25 Z0.1 (Moves to position specified rapid.)
G01 X3.125 Y5.25 Z-0.05499999999999999 F1080000 (Cuts to position specified.)
G01 X3.125 Y5.25 Z-0.05499999999999999 F1080000 (Cuts to position specified.)
G01 X3.125 Y5.25 Z0.1 F1080000 (Cuts to position specified.)
G00 X3.125 Y5.3125 Z0.1 (Moves to position specified rapid.)
G01 X3.125 Y5.3125 Z-0.05499999999999999 F1080000 (Cuts to position specified.)
G01 X3.1875 Y5.3125 Z-0.05499999999999999 F1080000 (Cuts to position specified.)
G01 X3.1875 Y5.3125 Z0.1 F1080000 (Cuts to position specified.)
G00 X4.9375 Y5.1875 Z0.1 (Moves to position specified rapid.)
G01 X4.9375 Y5.1875 Z-0.05499999999999999 F1080000 (Cuts to position specified.)
G01 X4.9375 Y5.1875 Z-0.05499999999999999 F1080000 (Cuts to position specified.)
G01 X4.9375 Y5.1875 Z0.1 F1080000 (Cuts to position specified.)
G00 X4.875 Y5.25 Z0.1 (Moves to position specified rapid.)
G01 X4.875 Y5.25 Z-0.05499999999999999 F1080000 (Cuts to position specified.)
G01 X4.9375 Y5.25 Z-0.05499999999999999 F1080000 (Cuts to position specified.)
G01 X4.9375 Y5.25 Z0.1 F1080000 (Cuts to position specified.)
G00 X4.875 Y5.3125 Z0.1 (Moves to position specified rapid.)
G01 X4.875 Y5.3125 Z-0.05499999999999999 F1080000 (Cuts to position specified.)
G01 X4.9375 Y5.3125 Z-0.05499999999999999 F1080000 (Cuts to position specified.)
G01 X4.9375 Y5.3125 Z0.1 F1080000 (Cuts to position specified.)
G00 X3.25 Y5.375 Z0.1 (Moves to position specified rapid.)
G01 X3.25 Y5.375 Z-0.05499999999999999 F1080000 (Cuts to position specified.)
G01 X3.25 Y5.375 Z-0.05499999999999999 F1080000 (Cuts to position specified.)
G01 X3.25 Y5.375 Z0.1 F1080000 (Cuts to position specified.)
G00 X3.25 Y5.4375 Z0.1 (Moves to position specified rapid.)
G01 X3.25 Y5.4375 Z-0.05499999999999999 F1080000 (Cuts to position specified.)
G01 X3.3125 Y5.4375 Z-0.05499999999999999 F1080000 (Cuts to position specified.)
G01 X3.3125 Y5.4375 Z0.1 F1080000 (Cuts to position specified.)
G00 X4.8125 Y5.3125 Z0.1 (Moves to position specified rapid.)
G01 X4.8125 Y5.3125 Z-0.05499999999999999 F1080000 (Cuts to position specified.)
G01 X4.8125 Y5.3125 Z-0.05499999999999999 F1080000 (Cuts to position specified.)
G01 X4.8125 Y5.3125 Z0.1 F1080000 (Cuts to position specified.)
G00 X4.75 Y5.375 Z0.1 (Moves to position specified rapid.)
G01 X4.75 Y5.375 Z-0.05499999999999999 F1080000 (Cuts to position specified.)
G01 X4.8125 Y5.375 Z-0.05499999999999999 F1080000 (Cuts to position specified.)
G01 X4.8125 Y5.375 Z0.1 F1080000 (Cuts to position specified.)
G00 X4.75 Y5.4375 Z0.1 (Moves to position specified rapid.)
G01 X4.75 Y5.4375 Z-0.05499999999999999 F1080000 (Cuts to position specified.)
G01 X4.8125 Y5.4375 Z-0.05499999999999999 F1080000 (Cuts to position specified.)
G01 X4.8125 Y5.4375 Z0.1 F1080000 (Cuts to position specified.)
G00 X3.375 Y5.5 Z0.1 (Moves to position specified rapid.)
G01 X3.375 Y5.5 Z-0.05499999999999999 F1080000 (Cuts to position specified.)
G01 X3.375 Y5.5 Z-0.05499999999999999 F1080000 (Cuts to position specified.)
G01 X3.375 Y5.5 Z0.1 F1080000 (Cuts to position specified.)
G00 X3.375 Y5.5625 Z0.1 (Moves to position specified rapid.)
G01 X3.375 Y5.5625 Z-0.05499999999999999 F1080000 (Cuts to position specified.)
G01 X3.4375 Y5.5625 Z-0.05499999999999999 F1080000 (Cuts to position specified.)
G01 X3.4375 Y5.5625 Z0.1 F1080000 (Cuts to position specified.)
G00 X4.6875 Y5.4375 Z0.1 (Moves to position specified rapid.)
G01 X4.6875 Y5.4375 Z-0.05499999999999999 F1080000 (Cuts to position specified.)
G01 X4.6875 Y5.4375 Z-0.05499999999999999 F1080000 (Cuts to position specified.)
G01 X4.6875 Y5.4375 Z0.1 F1080000 (Cuts to position specified.)
G00 X4.625 Y5.5 Z0.1 (Moves to position specified rapid.)
G01 X4.625 Y5.5 Z-0.05499999999999999 F1080000 (Cuts to position specified.)
G01 X4.6875 Y5.5 Z-0.05499999999999999 F1080000 (Cuts to position specified.)
G01 X4.6875 Y5.5 Z0.1 F1080000 (Cuts to position specified.)
G00 X4.625 Y5.5625 Z0.1 (Moves to position specified rapid.)
G01 X4.625 Y5.5625 Z-0.05499999999999999 F1080000 (Cuts to position specified.)
G01 X4.6875 Y5.5625 Z-0.05499999999999999 F1080000 (Cuts to position specified.)
G01 X4.6875 Y5.5625 Z0.1 F1080000 (Cuts to position specified.)
G00 X3.5 Y5.625 Z0.1 (Moves to position specified rapid.)
G01 X3.5 Y5.625 Z-0.05499999999999999 F1080000 (Cuts to position specified.)
G01 X3.5 Y5.625 Z-0.05499999999999999 F1080000 (Cuts to position specified.)
G01 X3.5 Y5.625 Z0.1 F1080000 (Cuts to position specified.)
G00 X3.5 Y5.6875 Z0.1 (Moves to position specified rapid.)
G01 X3.5 Y5.6875 Z-0.05499999999999999 F1080000 (Cuts to position specified.)
G01 X3.5625 Y5.6875 Z-0.05499999999999999 F1080000 (Cuts to position specified.)
G01 X3.5625 Y5.6875 Z0.1 F1080000 (Cuts to position specified.)
G00 X4.5625 Y5.5625 Z0.1 (Moves to position specified rapid.)
G01 X4.5625 Y5.5625 Z-0.05499999999999999 F1080000 (Cuts to position specified.)
G01 X4.5625 Y5.5625 Z-0.05499999999999999 F1080000 (Cuts to position specified.)
G01 X4.5625 Y5.5625 Z0.1 F1080000 (Cuts to position specified.)
G00 X4.5 Y5.625 Z0.1 (Moves to position specified rapid.)
G01 X4.5 Y5.625 Z-0.05499999999999999 F1080000 (Cuts to position specified.)
G01 X4.5625 Y5.625 Z-0.05499999999999999 F1080000 (Cuts to position specified.)
G01 X4.5625 Y5.625 Z0.1 F1080000 (Cuts to position specified.)
G00 X4.5 Y5.6875 Z0.1 (Moves to position specified rapid.)
G01 X4.5 Y5.6875 Z-0.05499999999999999 F1080000 (Cuts to position specified.)
G01 X4.5625 Y5.6875 Z-0.05499999999999999 F1080000 (Cuts to position specified.)
G01 X4.5625 Y5.6875 Z0.1 F1080000 (Cuts to position specified.)
G00 X3.625 Y5.75 Z0.1 (Moves to position specified rapid.)
G01 X3.625 Y5.75 Z-0.05499999999999999 F1080000 (Cuts to position specified.)
G01 X3.625 Y5.75 Z-0.05499999999999999 F1080000 (Cuts to position specified.)
G01 X3.625 Y5.75 Z0.1 F1080000 (Cuts to position specified.)
G00 X3.625 Y5.8125 Z0.1 (Moves to position specified rapid.)
G01 X3.625 Y5.8125 Z-0.05499999999999999 F1080000 (Cuts to position specified.)
G01 X3.6875 Y5.8125 Z-0.05499999999999999 F1080000 (Cuts to position specified.)
G01 X3.6875 Y5.8125 Z0.1 F1080000 (Cuts to position specified.)
G00 X4.4375 Y5.6875 Z0.1 (Moves to position specified rapid.)
G01 X4.4375 Y5.6875 Z-0.05499999999999999 F1080000 (Cuts to position specified.)
G01 X4.4375 Y5.6875 Z-0.05499999999999999 F1080000 (Cuts to position specified.)
G01 X4.4375 Y5.6875 Z0.1 F1080000 (Cuts to position specified.)
G00 X4.375 Y5.75 Z0.1 (Moves to position specified rapid.)
G01 X4.375 Y5.75 Z-0.05499999999999999 F1080000 (Cuts to position specified.)
G01 X4.4375 Y5.75 Z-0.05499999999999999 F1080000 (Cuts to position specified.)
G01 X4.4375 Y5.75 Z0.1 F1080000 (Cuts to position specified.)
G00 X4.375 Y5.8125 Z0.1 (Moves to position specified rapid.)
G01 X4.375 Y5.8125 Z-0.05499999999999999 F1080000 (Cuts to position specified.)
G01 X4.4375 Y5.8125 Z-0.05499999999999999 F1080000 (Cuts to position specified.)
G01 X4.4375 Y5.8125 Z0.1 F1080000 (Cuts to position specified.)
G00 X3.75 Y5.875 Z0.1 (Moves to position specified rapid.)
G01 X3.75 Y5.875 Z-0.05499999999999999 F1080000 (Cuts to position specified.)
G01 X3.75 Y5.875 Z-0.05499999999999999 F1080000 (Cuts to position specified.)
G01 X3.75 Y5.875 Z0.1 F1080000 (Cuts to position specified.)
G00 X3.75 Y5.9375 Z0.1 (Moves to position specified rapid.)
G01 X3.75 Y5.9375 Z-0.05499999999999999 F1080000 (Cuts to position specified.)
G01 X3.8125 Y5.9375 Z-0.05499999999999999 F1080000 (Cuts to position specified.)
G01 X3.8125 Y5.9375 Z0.1 F1080000 (Cuts to position specified.)
G00 X4.3125 Y5.8125 Z0.1 (Moves to position specified rapid.)
G01 X4.3125 Y5.8125 Z-0.05499999999999999 F1080000 (Cuts to position specified.)
G01 X4.3125 Y5.8125 Z-0.05499999999999999 F1080000 (Cuts to position specified.)
G01 X4.3125 Y5.8125 Z0.1 F1080000 (Cuts to position specified.)
G00 X4.25 Y5.875 Z0.1 (Moves to position specified rapid.)
G01 X4.25 Y5.875 Z-0.05499999999999999 F1080000 (Cuts to position specified.)
G01 X4.3125 Y5.875 Z-0.05499999999999999 F1080000 (Cuts to position specified.)
G01 X4.3125 Y5.875 Z0.1 F1080000 (Cuts to position specified.)
G00 X4.25 Y5.9375 Z0.1 (Moves to position specified rapid.)
G01 X4.25 Y5.9375 Z-0.05499999999999999 F1080000 (Cuts to position specified.)
G01 X4.3125 Y5.9375 Z-0.05499999999999999 F1080000 (Cuts to position specified.)
G01 X4.3125 Y5.9375 Z0.1 F1080000 (Cuts to position specified.)
G00 X3.875 Y6 Z0.1 (Moves to position specified rapid.)
G01 X3.875 Y6 Z-0.05499999999999999 F1080000 (Cuts to position specified.)
G01 X3.875 Y6 Z-0.05499999999999999 F1080000 (Cuts to position specified.)
G01 X3.875 Y6 Z0.1 F1080000 (Cuts to position specified.)
G00 X3.875 Y6.0625 Z0.1 (Moves to position specified rapid.)
G01 X3.875 Y6.0625 Z-0.05499999999999999 F1080000 (Cuts to position specified.)
G01 X3.9375 Y6.0625 Z-0.05499999999999999 F1080000 (Cuts to position specified.)
G01 X3.9375 Y6.0625 Z0.1 F1080000 (Cuts to position specified.)
G00 X4.1875 Y5.9375 Z0.1 (Moves to position specified rapid.)
G01 X4.1875 Y5.9375 Z-0.05499999999999999 F1080000 (Cuts to position specified.)
G01 X4.1875 Y5.9375 Z-0.05499999999999999 F1080000 (Cuts to position specified.)
G01 X4.1875 Y5.9375 Z0.1 F1080000 (Cuts to position specified.)
G00 X4.125 Y6 Z0.1 (Moves to position specified rapid.)
G01 X4.125 Y6 Z-0.05499999999999999 F1080000 (Cuts to position specified.)
G01 X4.1875 Y6 Z-0.05499999999999999 F1080000 (Cuts to position specified.)
G01 X4.1875 Y6 Z0.1 F1080000 (Cuts to position specified.)
G00 X4.125 Y6.0625 Z0.1 (Moves to position specified rapid.)
G01 X4.125 Y6.0625 Z-0.05499999999999999 F1080000 (Cuts to position specified.)
G01 X4.1875 Y6.0625 Z-0.05499999999999999 F1080000 (Cuts to position specified.)
G01 X4.1875 Y6.0625 Z0.1 F1080000 (Cuts to position specified.)
G00 X4 Y6.0625 Z0.1 (Moves to position specified rapid.)
G01 X4 Y6.0625 Z-0.05499999999999999 F1080000 (Cuts to position specified.)
G01 X4.0625 Y6.0625 Z-0.05499999999999999 F1080000 (Cuts to position specified.)
G01 X4.0625 Y6.0625 Z0.1 F1080000 (Cuts to position specified.)
M05 (Turn off the spindle.)
(CHANGED TOOL 3)
G00 X4.0625 Y6.0625 Z1 (return home z)
G00 X0 Y0 Z1 (return home)

N4 T2 M6 (Tool change.)
G187 P3 (Set accuracy to Finish.)
G43 Z0.5 H2 (Set tool offset for tool 2.)
S12000 M03 (Set spindle on to clockwise.)
G00 X3.9375 Y2 Z0.1 (Moves to position specified rapid.)
G01 X3.9375 Y2 Z-0.05499999999999999 F1080000 (Cuts to position specified.)
G01 X3.9791666666666665 Y2 Z-0.05499999999999999 F1080000 (Cuts to position specified.)
G01 X3.9791666666666665 Y2 Z0.1 F1080000 (Cuts to position specified.)
G00 X4.020833333333333 Y2 Z0.1 (Moves to position specified rapid.)
G01 X4.020833333333333 Y2 Z-0.05499999999999999 F1080000 (Cuts to position specified.)
G01 X4.104166666666667 Y2 Z-0.05499999999999999 F1080000 (Cuts to position specified.)
G01 X4.104166666666667 Y2 Z0.1 F1080000 (Cuts to position specified.)
G00 X3.9375 Y2.0208333333333335 Z0.1 (Moves to position specified rapid.)
G01 X3.9375 Y2.0208333333333335 Z-0.05499999999999999 F1080000 (Cuts to position specified.)
G01 X3.9583333333333335 Y2.0208333333333335 Z-0.05499999999999999 F1080000 (Cuts to position specified.)
G01 X3.9583333333333335 Y2.0208333333333335 Z0.1 F1080000 (Cuts to position specified.)
G00 X4.041666666666667 Y2.0208333333333335 Z0.1 (Moves to position specified rapid.)
G01 X4.041666666666667 Y2.0208333333333335 Z-0.05499999999999999 F1080000 (Cuts to position specified.)
G01 X4.104166666666667 Y2.0208333333333335 Z-0.05499999999999999 F1080000 (Cuts to position specified.)
G01 X4.104166666666667 Y2.0208333333333335 Z0.1 F1080000 (Cuts to position specified.)
G00 X3.9375 Y2.0416666666666665 Z0.1 (Moves to position specified rapid.)
G01 X3.9375 Y2.0416666666666665 Z-0.05499999999999999 F1080000 (Cuts to position specified.)
G01 X3.9375 Y2.0416666666666665 Z-0.05499999999999999 F1080000 (Cuts to position specified.)
G01 X3.9375 Y2.0416666666666665 Z0.1 F1080000 (Cuts to position specified.)
G00 X4.0625 Y2.0416666666666665 Z0.1 (Moves to position specified rapid.)
G01 X4.0625 Y2.0416666666666665 Z-0.05499999999999999 F1080000 (Cuts to position specified.)
G01 X4.104166666666667 Y2.0416666666666665 Z-0.05499999999999999 F1080000 (Cuts to position specified.)
G01 X4.104166666666667 Y2.0416666666666665 Z0.1 F1080000 (Cuts to position specified.)
G00 X4.083333333333333 Y2.0625 Z0.1 (Moves to position specified rapid.)
G01 X4.083333333333333 Y2.0625 Z-0.05499999999999999 F1080000 (Cuts to position specified.)
G01 X4.104166666666667 Y2.0625 Z-0.05499999999999999 F1080000 (Cuts to position specified.)
G01 X4.104166666666667 Y2.0625 Z0.1 F1080000 (Cuts to position specified.)
G00 X4.104166666666667 Y2.0833333333333335 Z0.1 (Moves to position specified rapid.)
G01 X4.104166666666667 Y2.0833333333333335 Z-0.05499999999999999 F1080000 (Cuts to position specified.)
G01 X4.104166666666667 Y2.0833333333333335 Z-0.05499999999999999 F1080000 (Cuts to position specified.)
G01 X4.104166666666667 Y2.0833333333333335 Z0.1 F1080000 (Cuts to position specified.)
G01 X4.104166666666667 Y2.0833333333333335 Z0.1 F1080000 (Cuts to position specified.)
G00 X3.875 Y2.0625 Z0.1 (Moves to position specified rapid.)
G01 X3.875 Y2.0625 Z-0.05499999999999999 F1080000 (Cuts to position specified.)
G01 X3.9166666666666665 Y2.0625 Z-0.05499999999999999 F1080000 (Cuts to position specified.)
G01 X3.9166666666666665 Y2.0625 Z0.1 F1080000 (Cuts to position specified.)
G00 X3.875 Y2.0833333333333335 Z0.1 (Moves to position specified rapid.)
G01 X3.875 Y2.0833333333333335 Z-0.05499999999999999 F1080000 (Cuts to position specified.)
G01 X3.8958333333333335 Y2.0833333333333335 Z-0.05499999999999999 F1080000 (Cuts to position specified.)
G01 X3.8958333333333335 Y2.0833333333333335 Z0.1 F1080000 (Cuts to position specified.)
G00 X3.875 Y2.1041666666666665 Z0.1 (Moves to position specified rapid.)
G01 X3.875 Y2.1041666666666665 Z-0.05499999999999999 F1080000 (Cuts to position specified.)
G01 X3.875 Y2.1041666666666665 Z-0.05499999999999999 F1080000 (Cuts to position specified.)
G01 X3.875 Y2.1041666666666665 Z0.1 F1080000 (Cuts to position specified.)
G01 X3.875 Y2.1041666666666665 Z0.1 F1080000 (Cuts to position specified.)
G00 X4.125 Y2.0625 Z0.1 (Moves to position specified rapid.)
G01 X4.125 Y2.0625 Z-0.05499999999999999 F1080000 (Cuts to position specified.)
G01 X4.166666666666667 Y2.0625 Z-0.05499999999999999 F1080000 (Cuts to position specified.)
G01 X4.166666666666667 Y2.0625 Z0.1 F1080000 (Cuts to position specified.)
G00 X4.125 Y2.0833333333333335 Z0.1 (Moves to position specified rapid.)
G01 X4.125 Y2.0833333333333335 Z-0.05499999999999999 F1080000 (Cuts to position specified.)
G01 X4.166666666666667 Y2.0833333333333335 Z-0.05499999999999999 F1080000 (Cuts to position specified.)
G01 X4.166666666666667 Y2.0833333333333335 Z0.1 F1080000 (Cuts to position specified.)
G00 X4.125 Y2.1041666666666665 Z0.1 (Moves to position specified rapid.)
G01 X4.125 Y2.1041666666666665 Z-0.05499999999999999 F1080000 (Cuts to position specified.)
G01 X4.166666666666667 Y2.1041666666666665 Z-0.05499999999999999 F1080000 (Cuts to position specified.)
G01 X4.166666666666667 Y2.1041666666666665 Z0.1 F1080000 (Cuts to position specified.)
G00 X4.145833333333333 Y2.125 Z0.1 (Moves to position specified rapid.)
G01 X4.145833333333333 Y2.125 Z-0.05499999999999999 F1080000 (Cuts to position specified.)
G01 X4.166666666666667 Y2.125 Z-0.05499999999999999 F1080000 (Cuts to position specified.)
G01 X4.166666666666667 Y2.125 Z0.1 F1080000 (Cuts to position specified.)
G00 X4.166666666666667 Y2.1458333333333335 Z0.1 (Moves to position specified rapid.)
G01 X4.166666666666667 Y2.1458333333333335 Z-0.05499999999999999 F1080000 (Cuts to position specified.)
G01 X4.166666666666667 Y2.1458333333333335 Z-0.05499999999999999 F1080000 (Cuts to position specified.)
G01 X4.166666666666667 Y2.1458333333333335 Z0.1 F1080000 (Cuts to position specified.)
G01 X4.166666666666667 Y2.1458333333333335 Z0.1 F1080000 (Cuts to position specified.)
G00 X3.8125 Y2.125 Z0.1 (Moves to position specified rapid.)
G01 X3.8125 Y2.125 Z-0.05499999999999999 F1080000 (Cuts to position specified.)
G01 X3.8541666666666665 Y2.125 Z-0.05499999999999999 F1080000 (Cuts to position specified.)
G01 X3.8541666666666665 Y2.125 Z0.1 F1080000 (Cuts to position specified.)
G00 X3.8125 Y2.1458333333333335 Z0.1 (Moves to position specified rapid.)
G01 X3.8125 Y2.1458333333333335 Z-0.05499999999999999 F1080000 (Cuts to position specified.)
G01 X3.8333333333333335 Y2.1458333333333335 Z-0.05499999999999999 F1080000 (Cuts to position specified.)
G01 X3.8333333333333335 Y2.1458333333333335 Z0.1 F1080000 (Cuts to position specified.)
G00 X3.8125 Y2.1666666666666665 Z0.1 (Moves to position specified rapid.)
G01 X3.8125 Y2.1666666666666665 Z-0.05499999999999999 F1080000 (Cuts to position specified.)
G01 X3.8125 Y2.1666666666666665 Z-0.05499999999999999 F1080000 (Cuts to position specified.)
G01 X3.8125 Y2.1666666666666665 Z0.1 F1080000 (Cuts to position specified.)
G01 X3.8125 Y2.1666666666666665 Z0.1 F1080000 (Cuts to position specified.)
G01 X3.8125 Y2.1666666666666665 Z0.1 F1080000 (Cuts to position specified.)
G01 X3.8125 Y2.1666666666666665 Z0.1 F1080000 (Cuts to position specified.)
G00 X4.1875 Y2.125 Z0.1 (Moves to position specified rapid.)
G01 X4.1875 Y2.125 Z-0.05499999999999999 F1080000 (Cuts to position specified.)
G01 X4.229166666666667 Y2.125 Z-0.05499999999999999 F1080000 (Cuts to position specified.)
G01 X4.229166666666667 Y2.125 Z0.1 F1080000 (Cuts to position specified.)
G00 X4.1875 Y2.1458333333333335 Z0.1 (Moves to position specified rapid.)
G01 X4.1875 Y2.1458333333333335 Z-0.05499999999999999 F1080000 (Cuts to position specified.)
G01 X4.229166666666667 Y2.1458333333333335 Z-0.05499999999999999 F1080000 (Cuts to position specified.)
G01 X4.229166666666667 Y2.1458333333333335 Z0.1 F1080000 (Cuts to position specified.)
G00 X4.1875 Y2.1666666666666665 Z0.1 (Moves to position specified rapid.)
G01 X4.1875 Y2.1666666666666665 Z-0.05499999999999999 F1080000 (Cuts to position specified.)
G01 X4.229166666666667 Y2.1666666666666665 Z-0.05499999999999999 F1080000 (Cuts to position specified.)
G01 X4.229166666666667 Y2.1666666666666665 Z0.1 F1080000 (Cuts to position specified.)
G00 X4.208333333333333 Y2.1875 Z0.1 (Moves to position specified rapid.)
G01 X4.208333333333333 Y2.1875 Z-0.05499999999999999 F1080000 (Cuts to position specified.)
G01 X4.229166666666667 Y2.1875 Z-0.05499999999999999 F1080000 (Cuts to position specified.)
G01 X4.229166666666667 Y2.1875 Z0.1 F1080000 (Cuts to position specified.)
G00 X4.229166666666667 Y2.2083333333333335 Z0.1 (Moves to position specified rapid.)
G01 X4.229166666666667 Y2.2083333333333335 Z-0.05499999999999999 F1080000 (Cuts to position specified.)
G01 X4.229166666666667 Y2.2083333333333335 Z-0.05499999999999999 F1080000 (Cuts to position specified.)
G01 X4.229166666666667 Y2.2083333333333335 Z0.1 F1080000 (Cuts to position specified.)
G01 X4.229166666666667 Y2.2083333333333335 Z0.1 F1080000 (Cuts to position specified.)
G00 X3.75 Y2.1875 Z0.1 (Moves to position specified rapid.)
G01 X3.75 Y2.1875 Z-0.05499999999999999 F1080000 (Cuts to position specified.)
G01 X3.7916666666666665 Y2.1875 Z-0.05499999999999999 F1080000 (Cuts to position specified.)
G01 X3.7916666666666665 Y2.1875 Z0.1 F1080000 (Cuts to position specified.)
G00 X3.75 Y2.2083333333333335 Z0.1 (Moves to position specified rapid.)
G01 X3.75 Y2.2083333333333335 Z-0.05499999999999999 F1080000 (Cuts to position specified.)
G01 X3.7708333333333335 Y2.2083333333333335 Z-0.05499999999999999 F1080000 (Cuts to position specified.)
G01 X3.7708333333333335 Y2.2083333333333335 Z0.1 F1080000 (Cuts to position specified.)
G00 X3.75 Y2.2291666666666665 Z0.1 (Moves to position specified rapid.)
G01 X3.75 Y2.2291666666666665 Z-0.05499999999999999 F1080000 (Cuts to position specified.)
G01 X3.75 Y2.2291666666666665 Z-0.05499999999999999 F1080000 (Cuts to position specified.)
G01 X3.75 Y2.2291666666666665 Z0.1 F1080000 (Cuts to position specified.)
G01 X3.75 Y2.2291666666666665 Z0.1 F1080000 (Cuts to position specified.)
G00 X4.25 Y2.1875 Z0.1 (Moves to position specified rapid.)
G01 X4.25 Y2.1875 Z-0.05499999999999999 F1080000 (Cuts to position specified.)
G01 X4.291666666666667 Y2.1875 Z-0.05499999999999999 F1080000 (Cuts to position specified.)
G01 X4.291666666666667 Y2.1875 Z0.1 F1080000 (Cuts to position specified.)
G00 X4.25 Y2.2083333333333335 Z0.1 (Moves to position specified rapid.)
G01 X4.25 Y2.2083333333333335 Z-0.05499999999999999 F1080000 (Cuts to position specified.)
G01 X4.291666666666667 Y2.2083333333333335 Z-0.05499999999999999 F1080000 (Cuts to position specified.)
G01 X4.291666666666667 Y2.2083333333333335 Z0.1 F1080000 (Cuts to position specified.)
G00 X4.25 Y2.2291666666666665 Z0.1 (Moves to position specified rapid.)
G01 X4.25 Y2.2291666666666665 Z-0.05499999999999999 F1080000 (Cuts to position specified.)
G01 X4.291666666666667 Y2.2291666666666665 Z-0.05499999999999999 F1080000 (Cuts to position specified.)
G01 X4.291666666666667 Y2.2291666666666665 Z0.1 F1080000 (Cuts to position specified.)
G00 X4.270833333333333 Y2.25 Z0.1 (Moves to position specified rapid.)
G01 X4.270833333333333 Y2.25 Z-0.05499999999999999 F1080000 (Cuts to position specified.)
G01 X4.291666666666667 Y2.25 Z-0.05499999999999999 F1080000 (Cuts to position specified.)
G01 X4.291666666666667 Y2.25 Z0.1 F1080000 (Cuts to position specified.)
G00 X4.291666666666667 Y2.2708333333333335 Z0.1 (Moves to position specified rapid.)
G01 X4.291666666666667 Y2.2708333333333335 Z-0.05499999999999999 F1080000 (Cuts to position specified.)
G01 X4.291666666666667 Y2.2708333333333335 Z-0.05499999999999999 F1080000 (Cuts to position specified.)
G01 X4.291666666666667 Y2.2708333333333335 Z0.1 F1080000 (Cuts to position specified.)
G01 X4.291666666666667 Y2.2708333333333335 Z0.1 F1080000 (Cuts to position specified.)
G00 X3.6875 Y2.25 Z0.1 (Moves to position specified rapid.)
G01 X3.6875 Y2.25 Z-0.05499999999999999 F1080000 (Cuts to position specified.)
G01 X3.7291666666666665 Y2.25 Z-0.05499999999999999 F1080000 (Cuts to position specified.)
G01 X3.7291666666666665 Y2.25 Z0.1 F1080000 (Cuts to position specified.)
G00 X3.6875 Y2.2708333333333335 Z0.1 (Moves to position specified rapid.)
G01 X3.6875 Y2.2708333333333335 Z-0.05499999999999999 F1080000 (Cuts to position specified.)
G01 X3.7083333333333335 Y2.2708333333333335 Z-0.05499999999999999 F1080000 (Cuts to position specified.)
G01 X3.7083333333333335 Y2.2708333333333335 Z0.1 F1080000 (Cuts to position specified.)
G00 X3.6875 Y2.2916666666666665 Z0.1 (Moves to position specified rapid.)
G01 X3.6875 Y2.2916666666666665 Z-0.05499999999999999 F1080000 (Cuts to position specified.)
G01 X3.6875 Y2.2916666666666665 Z-0.05499999999999999 F1080000 (Cuts to position specified.)
G01 X3.6875 Y2.2916666666666665 Z0.1 F1080000 (Cuts to position specified.)
G01 X3.6875 Y2.2916666666666665 Z0.1 F1080000 (Cuts to position specified.)
G00 X4.3125 Y2.25 Z0.1 (Moves to position specified rapid.)
G01 X4.3125 Y2.25 Z-0.05499999999999999 F1080000 (Cuts to position specified.)
G01 X4.354166666666667 Y2.25 Z-0.05499999999999999 F1080000 (Cuts to position specified.)
G01 X4.354166666666667 Y2.25 Z0.1 F1080000 (Cuts to position specified.)
G00 X4.3125 Y2.2708333333333335 Z0.1 (Moves to position specified rapid.)
G01 X4.3125 Y2.2708333333333335 Z-0.05499999999999999 F1080000 (Cuts to position specified.)
G01 X4.354166666666667 Y2.2708333333333335 Z-0.05499999999999999 F1080000 (Cuts to position specified.)
G01 X4.354166666666667 Y2.2708333333333335 Z0.1 F1080000 (Cuts to position specified.)
G00 X4.3125 Y2.2916666666666665 Z0.1 (Moves to position specified rapid.)
G01 X4.3125 Y2.2916666666666665 Z-0.05499999999999999 F1080000 (Cuts to position specified.)
G01 X4.354166666666667 Y2.2916666666666665 Z-0.05499999999999999 F1080000 (Cuts to position specified.)
G01 X4.354166666666667 Y2.2916666666666665 Z0.1 F1080000 (Cuts to position specified.)
G00 X4.333333333333333 Y2.3125 Z0.1 (Moves to position specified rapid.)
G01 X4.333333333333333 Y2.3125 Z-0.05499999999999999 F1080000 (Cuts to position specified.)
G01 X4.354166666666667 Y2.3125 Z-0.05499999999999999 F1080000 (Cuts to position specified.)
G01 X4.354166666666667 Y2.3125 Z0.1 F1080000 (Cuts to position specified.)
G00 X4.354166666666667 Y2.3333333333333335 Z0.1 (Moves to position specified rapid.)
G01 X4.354166666666667 Y2.3333333333333335 Z-0.05499999999999999 F1080000 (Cuts to position specified.)
G01 X4.354166666666667 Y2.3333333333333335 Z-0.05499999999999999 F1080000 (Cuts to position specified.)
G01 X4.354166666666667 Y2.3333333333333335 Z0.1 F1080000 (Cuts to position specified.)
G01 X4.354166666666667 Y2.3333333333333335 Z0.1 F1080000 (Cuts to position specified.)
G00 X3.625 Y2.3125 Z0.1 (Moves to position specified rapid.)
G01 X3.625 Y2.3125 Z-0.05499999999999999 F1080000 (Cuts to position specified.)
G01 X3.6666666666666665 Y2.3125 Z-0.05499999999999999 F1080000 (Cuts to position specified.)
G01 X3.6666666666666665 Y2.3125 Z0.1 F1080000 (Cuts to position specified.)
G00 X3.625 Y2.3333333333333335 Z0.1 (Moves to position specified rapid.)
G01 X3.625 Y2.3333333333333335 Z-0.05499999999999999 F1080000 (Cuts to position specified.)
G01 X3.6458333333333335 Y2.3333333333333335 Z-0.05499999999999999 F1080000 (Cuts to position specified.)
G01 X3.6458333333333335 Y2.3333333333333335 Z0.1 F1080000 (Cuts to position specified.)
G00 X3.625 Y2.3541666666666665 Z0.1 (Moves to position specified rapid.)
G01 X3.625 Y2.3541666666666665 Z-0.05499999999999999 F1080000 (Cuts to position specified.)
G01 X3.625 Y2.3541666666666665 Z-0.05499999999999999 F1080000 (Cuts to position specified.)
G01 X3.625 Y2.3541666666666665 Z0.1 F1080000 (Cuts to position specified.)
G01 X3.625 Y2.3541666666666665 Z0.1 F1080000 (Cuts to position specified.)
G00 X4.375 Y2.3125 Z0.1 (Moves to position specified rapid.)
G01 X4.375 Y2.3125 Z-0.05499999999999999 F1080000 (Cuts to position specified.)
G01 X4.416666666666667 Y2.3125 Z-0.05499999999999999 F1080000 (Cuts to position specified.)
G01 X4.416666666666667 Y2.3125 Z0.1 F1080000 (Cuts to position specified.)
G00 X4.375 Y2.3333333333333335 Z0.1 (Moves to position specified rapid.)
G01 X4.375 Y2.3333333333333335 Z-0.05499999999999999 F1080000 (Cuts to position specified.)
G01 X4.416666666666667 Y2.3333333333333335 Z-0.05499999999999999 F1080000 (Cuts to position specified.)
G01 X4.416666666666667 Y2.3333333333333335 Z0.1 F1080000 (Cuts to position specified.)
G00 X4.375 Y2.3541666666666665 Z0.1 (Moves to position specified rapid.)
G01 X4.375 Y2.3541666666666665 Z-0.05499999999999999 F1080000 (Cuts to position specified.)
G01 X4.416666666666667 Y2.3541666666666665 Z-0.05499999999999999 F1080000 (Cuts to position specified.)
G01 X4.416666666666667 Y2.3541666666666665 Z0.1 F1080000 (Cuts to position specified.)
G00 X4.395833333333333 Y2.375 Z0.1 (Moves to position specified rapid.)
G01 X4.395833333333333 Y2.375 Z-0.05499999999999999 F1080000 (Cuts to position specified.)
G01 X4.416666666666667 Y2.375 Z-0.05499999999999999 F1080000 (Cuts to position specified.)
G01 X4.416666666666667 Y2.375 Z0.1 F1080000 (Cuts to position specified.)
G00 X4.416666666666667 Y2.3958333333333335 Z0.1 (Moves to position specified rapid.)
G01 X4.416666666666667 Y2.3958333333333335 Z-0.05499999999999999 F1080000 (Cuts to position specified.)
G01 X4.416666666666667 Y2.3958333333333335 Z-0.05499999999999999 F1080000 (Cuts to position specified.)
G01 X4.416666666666667 Y2.3958333333333335 Z0.1 F1080000 (Cuts to position specified.)
G01 X4.416666666666667 Y2.3958333333333335 Z0.1 F1080000 (Cuts to position specified.)
G00 X3.5625 Y2.375 Z0.1 (Moves to position specified rapid.)
G01 X3.5625 Y2.375 Z-0.05499999999999999 F1080000 (Cuts to position specified.)
G01 X3.6041666666666665 Y2.375 Z-0.05499999999999999 F1080000 (Cuts to position specified.)
G01 X3.6041666666666665 Y2.375 Z0.1 F1080000 (Cuts to position specified.)
G00 X3.5625 Y2.3958333333333335 Z0.1 (Moves to position specified rapid.)
G01 X3.5625 Y2.3958333333333335 Z-0.05499999999999999 F1080000 (Cuts to position specified.)
G01 X3.5833333333333335 Y2.3958333333333335 Z-0.05499999999999999 F1080000 (Cuts to position specified.)
G01 X3.5833333333333335 Y2.3958333333333335 Z0.1 F1080000 (Cuts to position specified.)
G00 X3.5625 Y2.4166666666666665 Z0.1 (Moves to position specified rapid.)
G01 X3.5625 Y2.4166666666666665 Z-0.05499999999999999 F1080000 (Cuts to position specified.)
G01 X3.5625 Y2.4166666666666665 Z-0.05499999999999999 F1080000 (Cuts to position specified.)
G01 X3.5625 Y2.4166666666666665 Z0.1 F1080000 (Cuts to position specified.)
G01 X3.5625 Y2.4166666666666665 Z0.1 F1080000 (Cuts to position specified.)
G00 X4.4375 Y2.375 Z0.1 (Moves to position specified rapid.)
G01 X4.4375 Y2.375 Z-0.05499999999999999 F1080000 (Cuts to position specified.)
G01 X4.479166666666667 Y2.375 Z-0.05499999999999999 F1080000 (Cuts to position specified.)
G01 X4.479166666666667 Y2.375 Z0.1 F1080000 (Cuts to position specified.)
G00 X4.4375 Y2.3958333333333335 Z0.1 (Moves to position specified rapid.)
G01 X4.4375 Y2.3958333333333335 Z-0.05499999999999999 F1080000 (Cuts to position specified.)
G01 X4.479166666666667 Y2.3958333333333335 Z-0.05499999999999999 F1080000 (Cuts to position specified.)
G01 X4.479166666666667 Y2.3958333333333335 Z0.1 F1080000 (Cuts to position specified.)
G00 X4.4375 Y2.4166666666666665 Z0.1 (Moves to position specified rapid.)
G01 X4.4375 Y2.4166666666666665 Z-0.05499999999999999 F1080000 (Cuts to position specified.)
G01 X4.479166666666667 Y2.4166666666666665 Z-0.05499999999999999 F1080000 (Cuts to position specified.)
G01 X4.479166666666667 Y2.4166666666666665 Z0.1 F1080000 (Cuts to position specified.)
G00 X4.458333333333333 Y2.4375 Z0.1 (Moves to position specified rapid.)
G01 X4.458333333333333 Y2.4375 Z-0.05499999999999999 F1080000 (Cuts to position specified.)
G01 X4.479166666666667 Y2.4375 Z-0.05499999999999999 F1080000 (Cuts to position specified.)
G01 X4.479166666666667 Y2.4375 Z0.1 F1080000 (Cuts to position specified.)
G00 X4.479166666666667 Y2.4583333333333335 Z0.1 (Moves to position specified rapid.)
G01 X4.479166666666667 Y2.4583333333333335 Z-0.05499999999999999 F1080000 (Cuts to position specified.)
G01 X4.479166666666667 Y2.4583333333333335 Z-0.05499999999999999 F1080000 (Cuts to position specified.)
G01 X4.479166666666667 Y2.4583333333333335 Z0.1 F1080000 (Cuts to position specified.)
G01 X4.479166666666667 Y2.4583333333333335 Z0.1 F1080000 (Cuts to position specified.)
G00 X3.5 Y2.4375 Z0.1 (Moves to position specified rapid.)
G01 X3.5 Y2.4375 Z-0.05499999999999999 F1080000 (Cuts to position specified.)
G01 X3.5416666666666665 Y2.4375 Z-0.05499999999999999 F1080000 (Cuts to position specified.)
G01 X3.5416666666666665 Y2.4375 Z0.1 F1080000 (Cuts to position specified.)
G00 X3.5 Y2.4583333333333335 Z0.1 (Moves to position specified rapid.)
G01 X3.5 Y2.4583333333333335 Z-0.05499999999999999 F1080000 (Cuts to position specified.)
G01 X3.5208333333333335 Y2.4583333333333335 Z-0.05499999999999999 F1080000 (Cuts to position specified.)
G01 X3.5208333333333335 Y2.4583333333333335 Z0.1 F1080000 (Cuts to position specified.)
G00 X3.5 Y2.4791666666666665 Z0.1 (Moves to position specified rapid.)
G01 X3.5 Y2.4791666666666665 Z-0.05499999999999999 F1080000 (Cuts to position specified.)
G01 X3.5 Y2.4791666666666665 Z-0.05499999999999999 F1080000 (Cuts to position specified.)
G01 X3.5 Y2.4791666666666665 Z0.1 F1080000 (Cuts to position specified.)
G01 X3.5 Y2.4791666666666665 Z0.1 F1080000 (Cuts to position specified.)
G00 X4.5 Y2.4375 Z0.1 (Moves to position specified rapid.)
G01 X4.5 Y2.4375 Z-0.05499999999999999 F1080000 (Cuts to position specified.)
G01 X4.541666666666667 Y2.4375 Z-0.05499999999999999 F1080000 (Cuts to position specified.)
G01 X4.541666666666667 Y2.4375 Z0.1 F1080000 (Cuts to position specified.)
G00 X4.5 Y2.4583333333333335 Z0.1 (Moves to position specified rapid.)
G01 X4.5 Y2.4583333333333335 Z-0.05499999999999999 F1080000 (Cuts to position specified.)
G01 X4.541666666666667 Y2.4583333333333335 Z-0.05499999999999999 F1080000 (Cuts to position specified.)
G01 X4.541666666666667 Y2.4583333333333335 Z0.1 F1080000 (Cuts to position specified.)
G00 X4.5 Y2.4791666666666665 Z0.1 (Moves to position specified rapid.)
G01 X4.5 Y2.4791666666666665 Z-0.05499999999999999 F1080000 (Cuts to position specified.)
G01 X4.541666666666667 Y2.4791666666666665 Z-0.05499999999999999 F1080000 (Cuts to position specified.)
G01 X4.541666666666667 Y2.4791666666666665 Z0.1 F1080000 (Cuts to position specified.)
G00 X4.520833333333333 Y2.5 Z0.1 (Moves to position specified rapid.)
G01 X4.520833333333333 Y2.5 Z-0.05499999999999999 F1080000 (Cuts to position specified.)
G01 X4.541666666666667 Y2.5 Z-0.05499999999999999 F1080000 (Cuts to position specified.)
G01 X4.541666666666667 Y2.5 Z0.1 F1080000 (Cuts to position specified.)
G00 X4.541666666666667 Y2.5208333333333335 Z0.1 (Moves to position specified rapid.)
G01 X4.541666666666667 Y2.5208333333333335 Z-0.05499999999999999 F1080000 (Cuts to position specified.)
G01 X4.541666666666667 Y2.5208333333333335 Z-0.05499999999999999 F1080000 (Cuts to position specified.)
G01 X4.541666666666667 Y2.5208333333333335 Z0.1 F1080000 (Cuts to position specified.)
G01 X4.541666666666667 Y2.5208333333333335 Z0.1 F1080000 (Cuts to position specified.)
G00 X3.4375 Y2.5 Z0.1 (Moves to position specified rapid.)
G01 X3.4375 Y2.5 Z-0.05499999999999999 F1080000 (Cuts to position specified.)
G01 X3.4791666666666665 Y2.5 Z-0.05499999999999999 F1080000 (Cuts to position specified.)
G01 X3.4791666666666665 Y2.5 Z0.1 F1080000 (Cuts to position specified.)
G00 X3.4375 Y2.5208333333333335 Z0.1 (Moves to position specified rapid.)
G01 X3.4375 Y2.5208333333333335 Z-0.05499999999999999 F1080000 (Cuts to position specified.)
G01 X3.4583333333333335 Y2.5208333333333335 Z-0.05499999999999999 F1080000 (Cuts to position specified.)
G01 X3.4583333333333335 Y2.5208333333333335 Z0.1 F1080000 (Cuts to position specified.)
G00 X3.4375 Y2.5416666666666665 Z0.1 (Moves to position specified rapid.)
G01 X3.4375 Y2.5416666666666665 Z-0.05499999999999999 F1080000 (Cuts to position specified.)
G01 X3.4375 Y2.5416666666666665 Z-0.05499999999999999 F1080000 (Cuts to position specified.)
G01 X3.4375 Y2.5416666666666665 Z0.1 F1080000 (Cuts to position specified.)
G01 X3.4375 Y2.5416666666666665 Z0.1 F1080000 (Cuts to position specified.)
G00 X4.5625 Y2.5 Z0.1 (Moves to position specified rapid.)
G01 X4.5625 Y2.5 Z-0.05499999999999999 F1080000 (Cuts to position specified.)
G01 X4.604166666666667 Y2.5 Z-0.05499999999999999 F1080000 (Cuts to position specified.)
G01 X4.604166666666667 Y2.5 Z0.1 F1080000 (Cuts to position specified.)
G00 X4.5625 Y2.5208333333333335 Z0.1 (Moves to position specified rapid.)
G01 X4.5625 Y2.5208333333333335 Z-0.05499999999999999 F1080000 (Cuts to position specified.)
G01 X4.604166666666667 Y2.5208333333333335 Z-0.05499999999999999 F1080000 (Cuts to position specified.)
G01 X4.604166666666667 Y2.5208333333333335 Z0.1 F1080000 (Cuts to position specified.)
G00 X4.5625 Y2.5416666666666665 Z0.1 (Moves to position specified rapid.)
G01 X4.5625 Y2.5416666666666665 Z-0.05499999999999999 F1080000 (Cuts to position specified.)
G01 X4.604166666666667 Y2.5416666666666665 Z-0.05499999999999999 F1080000 (Cuts to position specified.)
G01 X4.604166666666667 Y2.5416666666666665 Z0.1 F1080000 (Cuts to position specified.)
G00 X4.583333333333333 Y2.5625 Z0.1 (Moves to position specified rapid.)
G01 X4.583333333333333 Y2.5625 Z-0.05499999999999999 F1080000 (Cuts to position specified.)
G01 X4.604166666666667 Y2.5625 Z-0.05499999999999999 F1080000 (Cuts to position specified.)
G01 X4.604166666666667 Y2.5625 Z0.1 F1080000 (Cuts to position specified.)
G00 X4.604166666666667 Y2.5833333333333335 Z0.1 (Moves to position specified rapid.)
G01 X4.604166666666667 Y2.5833333333333335 Z-0.05499999999999999 F1080000 (Cuts to position specified.)
G01 X4.604166666666667 Y2.5833333333333335 Z-0.05499999999999999 F1080000 (Cuts to position specified.)
G01 X4.604166666666667 Y2.5833333333333335 Z0.1 F1080000 (Cuts to position specified.)
G01 X4.604166666666667 Y2.5833333333333335 Z0.1 F1080000 (Cuts to position specified.)
G00 X3.375 Y2.5625 Z0.1 (Moves to position specified rapid.)
G01 X3.375 Y2.5625 Z-0.05499999999999999 F1080000 (Cuts to position specified.)
